!!!!SEGMENT: pl-sa--79-a-ii-19--001-001_siwinski-andrzej--missa-pro-defunctis-requiem.krn
!!!cenid: 17xx:293
!!!COM: Siwiński, Andrzej
!!!COM-rismID: pe41011487
!!!CDT: <1725->1725
!!!CNT:
!!!OPR: Missa pro defunctis
!!!OTL: Requiem
!!!OMV: 001
!!!PDT: 1726
!!!AGN: Sacred; Mass
!!!YEC: Copyright 2022 Narodowy Instytut Fryderyka Chopina (https://polishscores.org)
!!!YEM: License CC-BY-4.0 (https://creativecommons.org/licenses/by/4.0)
!!!SMS-siglum: PL-SA
!!!SMS-shelfmark: 79/A II 19
!!!SMS-shelfwork: 001-001 M
!!!NIFC-rismSourceID: 1001070177
!!!NIFC-rismChildID: 1001070177
!!!NIFC-islandoraID: none
!!!URL-pdf-islandora:
!!!URL-scan: https://bc.bdsandomierz.pl/dlibra/publication/1356/edition/1324/content @EN{Scan in the Sandomierz Diocese Digital Library} @PL{Skany w portalu Cyfrowa Biblioteka Diecezjalna w Sandomierzu}
!!!IIIF:
!!!ONB-nifc: Uwaga: części Mszy: Requiem, Kyrie, Dies Irae, Quantus tremor, Tuba mirrum, Mors, Quid sum miser, Rex tremende, Quaerens me, Iuste iudex, Oro supplex, Pie Iesu Domine, Domine Iesu Christe,Quam olim Abrahae, Hostias, Sanctus, Osanna, Benedictus, Agnus Dei
!!!AIN: 1 alto 1 bass 2 oboe 1 organ 1 soprn 1 tenor 2 violn
!!!key: c
**kern	**fba	**kern	**dynam	**kern	**kern	**text	**mod-text	**kern	**text	**mod-text	**kern	**text	**mod-text	**kern	**text	**mod-text	**kern	**kern
*part9	*part9	*part8	*part8	*part7	*part6	*part6	*part6	*part5	*part5	*part5	*part4	*part4	*part4	*part3	*part3	*part3	*part2	*part1
*staff9	*staff9	*staff8	*	*staff7	*staff6	*staff6	*staff6	*staff5	*staff5	*staff5	*staff4	*staff4	*staff4	*staff3	*staff3	*staff3	*staff2	*staff1
*I"Baſso pro Organo	*	*I"Violino. 2do	*	*I"Violino 1mo	*I"Baſso vocali	*	*	*I"Tenore	*	*	*I"Alto.	*	*	*I"Canto.	*	*	*I"Hobois 2do.	*I"Hautbo. 1mo.
*mI"Basso e Organo	*	*mI"Violino II	*	*mI"Violino I	*mI"Basso	*	*	*	*	*	*mI"Alto	*	*	*mI"Soprano	*	*	*mI"Oboe II	*mI"Oboe I
*I'org	*	*I'vl 2	*	*I'vl 1	*I'B	*	*	*I'T	*	*	*I'A	*	*	*I'S	*	*	*I'ob 2	*I'ob 1
*Iorgan	*	*Ivioln	*	*Ivioln	*Ibass	*	*	*Itenor	*	*	*Ialto	*	*	*Isoprn	*	*	*Ioboe	*Ioboe
*ICklav	*	*ICstr	*	*ICstr	*ICvox	*	*	*ICvox	*	*	*ICvox	*	*	*ICvox	*	*	*ICww	*ICww
*IGcont	*	*	*	*IGcoro	*	*	*	*IGcoro	*	*	*IGcoro	*	*	*IGcoro	*	*	*	*
*clefF4	*	*clefG2	*	*clefG2	*clefF4	*	*	*clefC4	*	*	*clefC3	*	*	*clefC1	*	*	*clefG2	*clefG2
*	*	*	*	*	*	*	*	*mclefGv2	*	*	*mclefG2	*	*	*mclefG2	*	*	*	*
*k[b-e-]	*	*k[e-b-]	*	*k[b-e-]	*k[b-e-]	*	*	*k[b-e-]	*	*	*k[b-e-]	*	*	*k[b-e-]	*	*	*k[b-e-]	*k[b-e-]
*mk[b-e-a-]	*	*mk[b-e-a-]	*	*mk[b-e-a-]	*mk[b-e-a-]	*	*	*mk[b-e-a-]	*	*	*mk[b-e-a-]	*	*	*mk[b-e-a-]	*	*	*mk[b-e-a-]	*mk[b-e-a-]
*c:	*	*c:	*	*c:	*c:	*	*	*c:	*	*	*c:	*	*	*c:	*	*	*c:	*c:
*M2/2	*	*M2/2	*	*M2/2	*M2/2	*	*	*M2/2	*	*	*M2/2	*	*	*M2/2	*	*	*M2/2	*M2/2
*met(c|)	*	*met(c|)	*	*met(c|)	*met(c|)	*	*	*met(c|)	*	*	*met(c|)	*	*	*met(c|)	*	*	*met(c|)	*met(c|)
*mmet(c|)	*	*mmet(c|)	*	*mmet(c|)	*mmet(c|)	*	*	*mmet(c|)	*	*	*mmet(c|)	*	*	*mmet(c|)	*	*	*mmet(c|)	*mmet(c|)
=1	=1	=1	=1	=1	=1	=1	=1	=1	=1	=1	=1	=1	=1	=1	=1	=1	=1	=1
!LO:TX:a:i:mod= :t=Solo	!	!	!	!	!LO:TX:a:mod= :t=6	!	!	!	!	!	!	!	!	!LO:TX:t=P:problem=bemole b- ee-	!	!	!	!
!LO:TX:a:i:mod= :t=Lento	!	!	!	!	!LO:TX:a:i:mod= :t=Lente	!	!	!	!	!	!LO:TX:a:mod= :t=6	!	!	!LO:TX:a:mod= :t=3.	!	!	!	!LO:TX:t=P:problem=falista linia nad 4 ósemkami
!LO:TX:t=P:problem=bemole BB- E- B-	!	!LO:TX:a:i:mod= :t=Lente	!	!LO:TX:a:mod= :t=Lente	!	!	!	!	!	!	!LO:TX:a:i:mod= :t=Lente	!	!	!LO:TX:a:i:mod= :t=Lente	!	!	!LO:TX:a:mod= :t=Lente	!LO:TX:a:mod= :t=Lente
8C/L	.	8e-/L	.	8cc\L	00r	.	.	00r	.	.	00r	.	.	0r	.	.	8e-/L	8cc\L
8D/	.	8e-/	.	8cc\	.	.	.	.	.	.	.	.	.	.	.	.	8e-/	8cc\
8E-/	.	8e-/	.	8cc\	.	.	.	.	.	.	.	.	.	.	.	.	8e-/	8cc\
8F/J	.	8f/J	.	8cc\J	.	.	.	.	.	.	.	.	.	.	.	.	8f/J	8cc\J
8G\L	.	4d/	.	4bn\	.	.	.	.	.	.	.	.	.	.	.	.	4d/	4bn/
8A\	.	.	.	.	.	.	.	.	.	.	.	.	.	.	.	.	.	.
8Bn\	6	8r	.	8r	.	.	.	.	.	.	.	.	.	.	.	.	8r	8r
!	!	!LO:TX:t=P:problem=♮ above	!	!	!	!	!	!	!	!	!	!	!	!	!	!	!LO:TX:t=P:problem=♮ above	!
8G\J	.	8bn\	.	8dd\	.	.	.	.	.	.	.	.	.	.	.	.	8bn\	8dd\
=2	=2	=2	=2	=2	=2	=2	=2	=2	=2	=2	=2	=2	=2	=2	=2	=2	=2	=2
8c\L	.	4cc\	.	4ee-\	.	.	.	.	.	.	.	.	.	.	.	.	4cc\	4ee-\
8Bn\	6	.	.	.	.	.	.	.	.	.	.	.	.	.	.	.	.	.
8c\	.	8r	.	8r	.	.	.	.	.	.	.	.	.	.	.	.	8r	8r
8A\J	.	8a/	.	8cc\	.	.	.	.	.	.	.	.	.	.	.	.	8a/	8cc\
8Bn\L	6	4bn/	.	4dd\	.	.	.	.	.	.	.	.	.	.	.	.	4bn/	4dd\
8A\	.	.	.	.	.	.	.	.	.	.	.	.	.	.	.	.	.	.
8Bn\	.	8r	.	8r	.	.	.	.	.	.	.	.	.	.	.	.	8r	8r
!	!	!	!	!	!	!	!	!	!	!	!	!	!	!	!	!	!	!LO:TX:t=P:problem=♮ above
8G\J	4	8d/	.	8bn\	.	.	.	.	.	.	.	.	.	.	.	.	8d/	8bn\
.	3	.	.	.	.	.	.	.	.	.	.	.	.	.	.	.	.	.
=3	=3	=3	=3	=3	=3	=3	=3	=3	=3	=3	=3	=3	=3	=3	=3	=3	=3	=3
!	!	!LO:TX:t=P:problem=mixed beam	!	!	!	!	!	!	!	!	!	!	!	!	!	!	!LO:TX:t=P:problem=mixed beam	!
4C/	.	8e-/L	.	8cc\L	.	.	.	.	.	.	.	.	.	1r	.	.	8e-/L	8cc\L
!	!	!	!	!LO:SIC:s=8.gg	!	!	!	!	!	!	!	!	!	!	!	!	!	!
.	.	8.ee-\	.	(8.gg\	.	.	.	.	.	.	.	.	.	.	.	.	8.ee-\	8.gg\
8r	.	.	.	.	.	.	.	.	.	.	.	.	.	.	.	.	.	.
!	!	!	!	!LO:SIC:s=16ffL	!	!	!	!	!	!	!	!	!	!	!	!	!	!
.	.	16dd\L	.	16ff\L)	.	.	.	.	.	.	.	.	.	.	.	.	16dd\L	16ff\L
8C/	.	16cc\	.	16ee-\	.	.	.	.	.	.	.	.	.	.	.	.	16cc\	16ee-\
!	!	!LO:TX:t=P:problem=♮ above	!	!	!	!	!	!	!	!	!	!	!	!	!	!	!LO:TX:t=P:problem=♮ above	!
.	.	16bn\JJ	.	16dd\JJ	.	.	.	.	.	.	.	.	.	.	.	.	16bn\JJ	16dd\JJ
4F\	n	8a\L	.	8cc\L	.	.	.	.	.	.	.	.	.	.	.	.	8a\L	8cc\L
!	!	!	!	!LO:SIC:s=8.ff	!	!	!	!	!	!	!	!	!	!	!	!	!	!
.	.	8.dd\	.	(8.ff\	.	.	.	.	.	.	.	.	.	.	.	.	8.dd\	8.ff\
8r	.	.	.	.	.	.	.	.	.	.	.	.	.	.	.	.	.	.
!	!	!	!	!LO:SIC:s=16ee-L	!	!	!	!	!	!	!	!	!	!	!	!	!	!
.	.	16cc\L	.	16ee-\L)	.	.	.	.	.	.	.	.	.	.	.	.	16cc\L	16ee-\L
!	!	!LO:TX:t=P:problem=♮ above	!	!	!	!	!	!	!	!	!	!	!	!	!	!	!LO:TX:t=P:problem=♮ above	!
8F\	n	16bn\	.	16dd\	.	.	.	.	.	.	.	.	.	.	.	.	16bn\	16dd\
.	.	16a\JJ	.	16cc\JJ	.	.	.	.	.	.	.	.	.	.	.	.	16a\JJ	16cc\JJ
=4	=4	=4	=4	=4	=4	=4	=4	=4	=4	=4	=4	=4	=4	=4	=4	=4	=4	=4
!LO:TX:t=P:problem=mixed beam	!	!	!	!	!	!	!	!	!	!	!	!	!	!	!	!	!	!LO:TX:t=P:problem=kasownik w dziwnym kształcie i na wysokości dd
8G\L	.	8g/L	.	16bn\LL	.	.	.	.	.	.	.	.	.	2r	.	.	8g/L	16bn\LL
.	.	.	.	16cc\	.	.	.	.	.	.	.	.	.	.	.	.	.	16cc\
8F\	.	8a-X/	.	16dd\	.	.	.	.	.	.	.	.	.	.	.	.	8a-X/	16dd\
.	.	.	.	16ee-\JJ	.	.	.	.	.	.	.	.	.	.	.	.	.	16ee-\JJ
8G\	.	8g/	.	8.dd\L	.	.	.	.	.	.	.	.	.	.	.	.	8g/	8.ddm\L
8GG/J	4	8d/J	.	.	.	.	.	.	.	.	.	.	.	.	.	.	8d/J	.
.	3	.	.	16cc\Jk	.	.	.	.	.	.	.	.	.	.	.	.	.	16cc\Jk
!LO:TX:b:i:mod= :t=Cant.	!	!	!	!	!	!	!	!	!	!	!	!	!	!LO:TX:a:i:mod= :t=Solo	!	!	!	!
8C/L	.	4e-/	.	4cc\	.	.	.	.	.	.	.	.	.	4.cc\	Re-	Re-	4e-X/	4cc\
8D/	.	.	.	.	.	.	.	.	.	.	.	.	.	.	.	.	.	.
8E-/	.	4r	.	4r	.	.	.	.	.	.	.	.	.	.	.	.	4r	4r
8F/J	.	.	.	.	.	.	.	.	.	.	.	.	.	(16dd\LL	.	.	.	.
.	.	.	.	.	.	.	.	.	.	.	.	.	.	16cc\JJ)	.	.	.	.
=5	=5	=5	=5	=5	=5	=5	=5	=5	=5	=5	=5	=5	=5	=5	=5	=5	=5	=5
!LO:TX:t=P:problem=mixed beam	!	!	!	!LO:TX:a:mod= :t=1	!	!	!	!	!	!	!	!	!	!LO:TX:t=P:problem=♮ above	!	!	!	!
8G\L	.	1r	.	1r	0r	.	.	0r	.	.	0r	.	.	8.bn\	.	.	1r	1r
8GG/	6	.	.	.	.	.	.	.	.	.	.	.	.	.	.	.	.	.
!	!	!	!	!	!	!	!	!	!	!	!	!	!	!LO:TX:t=P:problem=♮ above	!	!	!	!
.	.	.	.	.	.	.	.	.	.	.	.	.	.	16bn\	-qui-	-qui-	.	.
8AA/	6	.	.	.	.	.	.	.	.	.	.	.	.	8cc\	-em	-em	.	.
8BBn/J	6	.	.	.	.	.	.	.	.	.	.	.	.	8dd\	ae-	ae-	.	.
!LO:TX:t=P:problem=mixed beam	!	!	!	!	!	!	!	!	!	!	!	!	!	!	!	!	!	!
8C\L	6	.	.	.	.	.	.	.	.	.	.	.	.	(16ee-\LL	-ter-	-ter-	.	.
.	.	.	.	.	.	.	.	.	.	.	.	.	.	16dd\	.	.	.	.
8F\	.	.	.	.	.	.	.	.	.	.	.	.	.	16cc\	.	.	.	.
.	.	.	.	.	.	.	.	.	.	.	.	.	.	16dd\JJ)	.	.	.	.
8G\	.	.	.	.	.	.	.	.	.	.	.	.	.	4bnm\	.	.	.	.
8GG/J	4	.	.	.	.	.	.	.	.	.	.	.	.	.	.	.	.	.
.	3	.	.	.	.	.	.	.	.	.	.	.	.	.	.	.	.	.
=6	=6	=6	=6	=6	=6	=6	=6	=6	=6	=6	=6	=6	=6	=6	=6	=6	=6	=6
!	!	!LO:TX:t=P:problem=mixed beam	!	!	!	!	!	!	!	!	!	!	!	!	!	!	!LO:TX:t=P:problem=mixed beam	!
4C/	.	8e-/L	.	8cc\L	.	.	.	.	.	.	.	.	.	4cc\	-nam	-nam	8e-/L	8cc\L
!	!	!	!	!LO:SIC:s=8.gg	!	!	!	!	!	!	!	!	!	!	!	!	!	!
.	.	8.ee-\	.	(8.gg\	.	.	.	.	.	.	.	.	.	.	.	.	8.ee-\	8.gg\
8r	.	.	.	.	.	.	.	.	.	.	.	.	.	4r	.	.	.	.
!	!	!	!	!LO:SIC:s=16ffL	!	!	!	!	!	!	!	!	!	!	!	!	!	!
.	.	16dd\L	.	16ff\L)	.	.	.	.	.	.	.	.	.	.	.	.	16dd\L	16ff\L
8C/	.	16cc\	.	16ee-\	.	.	.	.	.	.	.	.	.	.	.	.	16cc\	16ee-\
!	!	!LO:TX:t=P:problem=♮ above	!	!	!	!	!	!	!	!	!	!	!	!	!	!	!LO:TX:t=P:problem=♮ above	!
.	.	16bn\JJ	.	16dd\JJ	.	.	.	.	.	.	.	.	.	.	.	.	16bn\JJ	16dd\JJ
4F\	n	8a\L	.	8cc\L	.	.	.	.	.	.	.	.	.	2r	.	.	8a\L	8cc\L
!	!	!	!	!LO:SIC:s=8.ff	!	!	!	!	!	!	!	!	!	!	!	!	!	!
.	.	8.dd\	.	(8.ff\	.	.	.	.	.	.	.	.	.	.	.	.	8.dd\	8.ff\
8r	.	.	.	.	.	.	.	.	.	.	.	.	.	.	.	.	.	.
!	!	!	!	!LO:SIC:s=16ee-L	!	!	!	!	!	!	!	!	!	!	!	!	!	!
.	.	16cc\L	.	16ee-\L)	.	.	.	.	.	.	.	.	.	.	.	.	16cc\L	16ee-\L
!	!	!LO:TX:t=P:problem=♮ above	!	!	!	!	!	!	!	!	!	!	!	!	!	!	!LO:TX:t=P:problem=♮ above	!
8F\	n	16bn\	.	16dd\	.	.	.	.	.	.	.	.	.	.	.	.	16bn\	16dd\
.	.	16a\JJ	.	16cc\JJ	.	.	.	.	.	.	.	.	.	.	.	.	16a\JJ	16cc\JJ
!LO:LB:g=original	!	!	!	!	!	!	!	!	!	!	!	!	!	!	!	!	!	!LO:LB:g=original
=7	=7	=7	=7	=7	=7	=7	=7	=7	=7	=7	=7	=7	=7	=7	=7	=7	=7	=7
!LO:TX:t=P:problem=mixed beam	!	!	!	!	!	!	!	!	!	!	!	!	!	!	!	!	!	!
8G\L	.	8g/L	.	16bn\LL	2r	.	.	2r	.	.	2r	.	.	2r	.	.	8g/L	16bn\LL
.	.	.	.	16cc\	.	.	.	.	.	.	.	.	.	.	.	.	.	16cc\
8F\	.	8a-X/	.	16dd\	.	.	.	.	.	.	.	.	.	.	.	.	8a-X/	16dd\
.	.	.	.	16ee-\JJ	.	.	.	.	.	.	.	.	.	.	.	.	.	16ee-\JJ
8G\	.	8g/	.	8.ddm\L	.	.	.	.	.	.	.	.	.	.	.	.	8g/	8.ddm\L
8GG/J	4	8d/J	.	.	.	.	.	.	.	.	.	.	.	.	.	.	8d/J	.
.	3	.	.	16cc\Jk	.	.	.	.	.	.	.	.	.	.	.	.	.	16cc\Jk
!LO:TX:b:i:mod= :t=Tutti	!	!LO:LB:g=original	!	!	!LO:SIC:s=(8CL	!	!	!	!	!	!	!	!	!	!	!	!LO:LB:g=original	!
8C/L	.	4e-/	.	4cc\	8C/L	Re-	Re-	4.c\	Re-	Re-	(8e-\L	Re-	Re-	4.ee-\	Re-	Re-	4e-X/	4cc\
8D/	.	.	.	.	8D/	.	.	.	.	.	8f\	.	.	.	.	.	.	.
8E-/	.	4r	.	4r	8E-/	.	.	.	.	.	8g\	.	.	.	.	.	4r	4r
8F/J	.	.	.	.	8F/J	.	.	(16d\LL	.	.	8a-X\J)	.	.	(16ff\LL	.	.	.	.
.	.	.	.	.	.	.	.	16c\JJ)	.	.	.	.	.	16ee-\JJ)	.	.	.	.
!	!	!	!	!LO:LB:g=original	!	!	!	!	!	!	!	!	!	!	!	!	!	!
=8	=8	=8	=8	=8	=8	=8	=8	=8	=8	=8	=8	=8	=8	=8	=8	=8	=8	=8
8G\L	.	4bn\	.	4dd\	8G\L	.	.	4.Bn\	.	.	4.g\	.	.	4.dd\	.	.	4bn\	4dd\
8A\	.	.	.	.	8A\	.	.	.	.	.	.	.	.	.	.	.	.	.
8Bn\	6	8r	.	8r	8Bn\	.	.	.	.	.	.	.	.	.	.	.	8r	8r
!	!	!	!	!	!	!	!	!	!	!	!LO:TX:t=P:problem=♭ above	!	!	!	!	!	!	!
!	!	!	!	!	!LO:SIC:s=8GJ)	!	!	!	!	!	!LO:SIC:s=(16a-LL	!	!	!LO:SIC:s=(16ee-LL	!	!	!	!
8G\J	.	8dd\	.	8bbn\	8G\J	.	.	(16c\LL	.	.	16a-X\LL	.	.	16ee-\LL	.	.	8b\	8dd\
!	!	!	!	!	!	!	!	!	!	!	!LO:SIC:s=16gJJ)	!	!	!LO:SIC:s=16ddJJ)	!	!	!	!
.	.	.	.	.	.	.	.	16d\JJ)	.	.	16g\JJ	.	.	16dd\JJ	.	.	.	.
8A-X\L	5	8ee-\L	.	8ccc\L	4.A-X\	.	.	4.e-X\	.	.	4.e-\	.	.	4.ccM\	.	.	8cc\L	8ee-\L
!	!	!LO:SIC:v:s=8dd	!	!LO:TX:t=P:problem=♮ above	!	!	!	!	!	!	!	!	!	!	!	!	!LO:TX:t=P:problem=♮ above	!
8G\	.	8ee-\	.	8bbn\	.	.	.	.	.	.	.	.	.	.	.	.	8bn\	8dd\
8A-X\	5	8ee-\	.	8ccc\	.	.	.	.	.	.	.	.	.	.	.	.	8cc\	8ee-\
!	!	!	!	!	!	!	!	!	!	!	!	!	!	!	!	!	!LO:TX:t=P:problem=♭ above	!
8F\J	7	8ff\J	.	8ccc\J	8A-\	-qui-	-qui-	8e-\	-qui-	-qui-	8f\	-qui-	-qui-	8cc\	-qui-	-qui-	8a-X\J	8cc\J
.	6	.	.	.	.	.	.	.	.	.	.	.	.	.	.	.	.	.
=9	=9	=9	=9	=9	=9	=9	=9	=9	=9	=9	=9	=9	=9	=9	=9	=9	=9	=9
!	!	!	!	!	!	!	!	!	!	!	!	!	!	!LO:TX:t=P:problem=♮ above	!	!	!	!
4G\	.	4dd\	.	4bbn\	4G\	-em	-em	4d\	-em	-em	4g\	-em	-em	8bn\	-em	-em	4bn\	4dd\
.	.	.	.	.	.	.	.	.	.	.	.	.	.	8gg\	ae-	ae-	.	.
8r	.	8r	.	8r	8r	.	.	8r	.	.	8r	.	.	8ee-\	-ter-	-ter-	4r	4r
!LO:SIC:s=8c	!	!LO:SIC:s=8ee-	!	!	!	!	!	!	!	!	!	!	!	!	!	!	!	!
8c\L	.	8ee-\L	.	8gg\	8c\	ae-	ae-	8e-\	ae-	ae-	8g\	ae-	ae-	8cc\	-na(m)	-nam	.	.
!LO:SIC:s=8A-L	!	!LO:SIC:s=8ccL	!	!LO:TX:t=P:problem=♭ above	!	!	!	!	!	!	!	!	!	!	!	!	!	!
8A-X\	.	8cc\	.	8aa-X\L	8A-X\	-ter-	-ter-	8c\	-ter-	-ter-	8a-X\	-ter-	-ter-	8r	.	.	2r	2r
8F\J	.	8cc\J	.	8aa-\J	8F\	-na	-nam	8c\	-na	-nam	8a-\	-na(m)	-nam	8ff\	ae-	ae-	.	.
8r	.	8r	.	8r	8r	.	.	8r	.	.	8r	.	.	8dd\	-ter-	-ter-	.	.
*	*	*	*	*	*	*ij	*ij	*	*	*	*	*	*	*	*	*	*	*
!	!	!	!	!	!	!	!	!	!	!	!	!	!	!LO:SIC:v:s=8b-	!	!	!	!
8B-\	.	8dd\	.	8ff\	8B-\	ae-	ae-	8d\	ae-	ae-	8f\	ae-	ae-	8b\	-na(m)	-nam	.	.
=10	=10	=10	=10	=10	=10	=10	=10	=10	=10	=10	=10	=10	=10	=10	=10	=10	=10	=10
!	!	!	!	!	!	!	!	!	!	!	!	!	!	!	!	!	!	!LO:TX:a:mod= :t=1.
8G\L	.	8b-\L	.	8gg\L	8G\	-ter-	-ter-	8B-\	-ter-	-ter-	8g\	-ter-	-ter-	8r	.	.	1r	1r
8E-\J	.	8b-\J	.	8gg\J	8E-\	-na	-nam	8B-\	-na	-nam	8g\	-na(m)	-nam	8ee-\	ae-	ae-	.	.
!	!	!	!	!	!	!	!	!	!	!	!	!	!	!LO:TX:t=P:problem=brak nuty (uszkodzony papier)	!	!	!	!
!	!	!	!	!	!	!	!	!	!	!	!	!	!	!LO:MO:mod=8cc@	!	!	!	!
8r	.	8r	.	8r	8r	.	.	8r	.	.	8r	.	.	8ryy	.	-ter-	.	.
*	*	*	*	*	*	*	*	*	*	*	*	*ij	*ij	*	*	*	*	*
!	!	!	!	!	!	!	!	!	!	!	!	!	!	!LO:LB:g=original	!	!	!	!
8A-X\	.	8cc\	.	8ee-\	8A-X\	ae-	ae-	8c\	ae-	ae-	8e-\	ae-	ae-	8a-X\	-nam	-nam	.	.
8F\L	.	8a-X/L	.	8ff\L	8F\	-ter-	-ter-	8A-X\	-ter-	-ter-	8f\	-ter-	-ter-	4r	.	.	.	.
8D\	.	8a-/	.	8ff\	8D\	-na	-nam	8A-\	-na	-nam	8f\	-na(m)	-nam	.	.	.	.	.
*	*	*	*	*	*	*Xij	*Xij	*	*	*	*	*Xij	*Xij	*	*	*	*	*
!	!	!LO:SIC:s=8b-	!	!	!	!	!	!	!	!	!	!	!	!	!	!	!	!
8E-\	.	8b-'/	.	8gg\	8E-\	do-	do-	8B-\	do-	do-	8g\	do-	do-	8ee-\	do-	do-	.	.
!	!	!LO:SIC:s=8ccJ	!	!LO:TX:t=P:problem=♭ above	!	!	!	!	!	!	!	!	!	!	!	!	!	!
8F\J	.	8cc'/J	.	8aa-X\J	8F\	-na	-na	8c\	-na	-na	8f\	-na	-na	8ee-\	-na	-na	.	.
=11	=11	=11	=11	=11	=11	=11	=11	=11	=11	=11	=11	=11	=11	=11	=11	=11	=11	=11
!LO:TX:t=P:problem=mixed beam	!	!	!	!	!	!	!	!	!	!	!	!	!	!	!	!	!	!
8G\L	.	8ee-\L	.	8bb-\L	8G\	e-	e-	8B-\	e-	e-	8g\	e-	e-	8ee-\	e-	e-	2r	2r
!	!	!	!	!LO:TX:t=P:problem=♭ above	!LO:SIC:v:s=8A-	!	!	!	!	!	!	!	!	!	!	!	!	!
8A-X\	.	16ff\L	.	16aa-X\L	8A\	-is	-is	8c\	-is	-is	8a-X\	-is	-is	(16ff\LL	-is	-is	.	.
.	.	16ee-\JJ	.	16gg\JJ	.	.	.	.	.	.	.	.	.	16gg\JJ)	.	.	.	.
!	!	!	!	!	!LO:LB:g=original	!	!	!LO:LB:g=original	!	!	!	!	!	!	!	!	!	!
8B-\	.	8dd\L	.	8.ff\L	8.B-\	Do-	Do-	8.B-\	Do-	Do-	8.f\	Do-	Do-	8.dd\	Do-	Do-	.	.
8BB-/J	4	8dd\J	.	.	.	.	.	.	.	.	.	.	.	.	.	.	.	.
!	!	!	!	!	!	!	!	!LO:N:vis=8	!	!	!	!	!	!	!	!	!	!
.	3	.	.	16ff\Jk	16B-\	-mi-	-mi-	16B-\	-mi-	-mi-	16f\	-mi-	-mi-	16dd\	-mi-	-mi-	.	.
4E-\	.	4b-\	.	4gg\	4E-\	-ne	-ne	4B-\	-ne	-ne	4g\	-ne	-ne	4ee-\	-ne	-ne	4r	4r
8C/L	5	8ee-\L	.	8gg\L	8C/	do-	do-	8c\	do-	do-	8g\	do-	do-	8ee-\	do-	do-	8ee-\L	8gg\L
8D/J	6	8dd\J	.	8ff\J	8D/	-na	-na	8d\	-na	-na	8f\	-na	-na	8dd\	-na	-na	8dd\J	8ff\J
=12	=12	=12	=12	=12	=12	=12	=12	=12	=12	=12	=12	=12	=12	=12	=12	=12	=12	=12
!LO:TX:t=P:problem=mixed beam	!	!	!	!	!	!	!	!	!	!	!	!	!	!	!	!	!	!
8E-\L	.	8cc\L	.	8gg\L	8E-\	e-	e-	8e-\	e-	e-	8e-\	e-	e-	8cc\	e-	e-	8cc\L	8ee-\L
!	!	!	!	!LO:TX:t=P:problem=♭ above	!	!	!	!	!	!	!	!	!	!	!	!	!	!
8F\	.	8cc\J	.	8aa-X\J	8F\	-is	-is	8c\	-is	-is	8f\	-is	-is	8cc\	-is	-is	8a-X\J	8ff\J
!	!	!	!	!	!	!	!	!	!	!	!LO:LB:g=original	!	!	!	!	!	!	!
8G\	.	8.bn\L	.	8.gg\L	8.G\	Do-	Do-	8.Bn\	Do-	Do-	8.g\	Do-	Do-	8.bn\	Do-	Do-	4g/	8.dd\L
8GG/J	4	.	.	.	.	.	.	.	.	.	.	.	.	.	.	.	.	.
.	3	16b\Jk	.	16gg\Jk	16G\	-mi-	-mi-	16B\	-mi-	-mi-	16g\	-mi-	-mi-	16b\	-mi-	-mi-	.	16cc\Jk
!LO:TX:b:i:mod= :t=Solo	!	!	!	!	!	!	!	!	!	!	!	!	!	!	!	!	!LO:TX:t=P:problem=mixed beam	!
8C/L	.	8cc\	.	8gg\	4C/	-ne	-ne	4c\	-ne	-ne	4g\	-ne	-ne	4cc\	-ne	-ne	8e-/L	8cc\L
8D/	7	8r	.	8r	.	.	.	.	.	.	.	.	.	.	.	.	8cc\	8ee-\J
8E-/	.	4r	.	4r	4r	.	.	4r	.	.	4r	.	.	4r	.	.	8cc\	8ee-\L
!	!	!	!	!	!	!	!	!	!	!	!	!	!	!	!	!	!LO:SIC:v:s=8aJ	!
8F/J	.	.	.	.	.	.	.	.	.	.	.	.	.	.	.	.	8a-\J	16dd\L
.	.	.	.	.	.	.	.	.	.	.	.	.	.	.	.	.	.	16cc\JJ
!LO:LB:g=original	!	!	!	!	!	!	!	!	!	!	!	!	!	!	!	!	!	!
=13	=13	=13	=13	=13	=13	=13	=13	=13	=13	=13	=13	=13	=13	=13	=13	=13	=13	=13
!	!	!	!	!	!	!	!	!	!	!	!	!	!	!	!	!	!LO:SIC:v:s=4b-	!LO:TX:t=P:problem=mixed beam
8G\L	.	8dd\L	.	8gg\L	00r	.	.	00r	.	.	0r	.	.	00r	.	.	4bn\	8dd\L
8A\	7	8gg\	.	8bb-\J	.	.	.	.	.	.	.	.	.	.	.	.	.	8g/J
8B-X\	.	8gg\	.	8bb-\L	.	.	.	.	.	.	.	.	.	.	.	.	4r	4r
8c\J	.	8een\J	.	16aa\L	.	.	.	.	.	.	.	.	.	.	.	.	.	.
.	.	.	.	16gg\JJ	.	.	.	.	.	.	.	.	.	.	.	.	.	.
8d\L	.	4ff#X\	.	8aa\L	.	.	.	.	.	.	.	.	.	.	.	.	2r	2r
8D\	.	.	.	8dd\J	.	.	.	.	.	.	.	.	.	.	.	.	.	.
8En\	.	8r	.	8r	.	.	.	.	.	.	.	.	.	.	.	.	.	.
8F#X\J	6	8a/	.	8dd\	.	.	.	.	.	.	.	.	.	.	.	.	.	.
!	!	!LO:LB:g=original	!	!	!	!	!	!	!	!	!	!	!	!	!	!	!	!
=14	=14	=14	=14	=14	=14	=14	=14	=14	=14	=14	=14	=14	=14	=14	=14	=14	=14	=14
8G\L	-6r	8b-\L	.	8ee-\L	.	.	.	.	.	.	.	.	.	.	.	.	00r	00r
8G\	#n6r	8b-\	.	8een\	.	.	.	.	.	.	.	.	.	.	.	.	.	.
8A\	n6r	8cc\	.	8ff\	.	.	.	.	.	.	.	.	.	.	.	.	.	.
8A\J	#6r	8cc\J	.	8ff#X\J	.	.	.	.	.	.	.	.	.	.	.	.	.	.
8B-\L	6	4dd\	.	8gg\L	.	.	.	.	.	.	.	.	.	.	.	.	.	.
8A\	.	.	.	8dd\J	.	.	.	.	.	.	.	.	.	.	.	.	.	.
8G\	.	8r	.	[4gg\	.	.	.	.	.	.	.	.	.	.	.	.	.	.
8B-\J	.	8b-\	.	.	.	.	.	.	.	.	.	.	.	.	.	.	.	.
=15	=15	=15	=15	=15	=15	=15	=15	=15	=15	=15	=15	=15	=15	=15	=15	=15	=15	=15
!	!	!	!	!LO:SIC:s=16ggLL]	!	!	!	!	!	!	!	!	!	!	!	!	!	!
!LO:TX:t=P:problem=mixed beam	!	!LO:TX:t=P:problem=mixed beam	!	!LO:N:xstem:cue	!	!	!	!	!	!	!	!	!	!	!	!	!	!
8c\L	.	8cc\L	.	16gg\]	.	.	.	.	.	.	2r	.	.	.	.	.	.	.
!	!	!	!	!LO:SIC:s=16bb-	!	!	!	!	!	!	!	!	!	!	!	!	!	!
.	.	.	.	16bb-\LL	.	.	.	.	.	.	.	.	.	.	.	.	.	.
!	!	!LO:SIC:s=8ddJ	!	!	!	!	!	!	!	!	!	!	!	!	!	!	!	!
8G\	.	8dd\	.	16aa\	.	.	.	.	.	.	.	.	.	.	.	.	.	.
.	.	.	.	16gg\JJ	.	.	.	.	.	.	.	.	.	.	.	.	.	.
!	!	!LO:SIC:s=8.aL	!	!LO:LB:g=original	!	!	!	!	!	!	!	!	!	!	!	!	!	!
8d\	.	8.a/	.	8.ff#X\L	.	.	.	.	.	.	.	.	.	.	.	.	.	.
!LO:TX:b:i:mod= :t=alt. Et lux perpetuo	!	!	!	!	!	!	!	!	!	!	!	!	!	!	!	!	!	!
8D/J	4	.	.	.	.	.	.	.	.	.	.	.	.	.	.	.	.	.
.	3	16a/Jk	.	16ff#\Jk	.	.	.	.	.	.	.	.	.	.	.	.	.	.
8G\L	.	4b-/	.	4gg\	.	.	.	.	.	.	4r	.	.	.	.	.	.	.
8A\	.	.	.	.	.	.	.	.	.	.	.	.	.	.	.	.	.	.
!	!	!	!	!	!	!	!	!	!	!	!LO:TX:a:i:mod= :t=Solo	!	!	!	!	!	!	!
8B-\	.	4r	.	4r	.	.	.	.	.	.	4d\	Et	et	.	.	.	.	.
8F#X\J	6	.	.	.	.	.	.	.	.	.	.	.	.	.	.	.	.	.
=16	=16	=16	=16	=16	=16	=16	=16	=16	=16	=16	=16	=16	=16	=16	=16	=16	=16	=16
!LO:TX:t=P:problem=mixed beam	!	!	!	!	!	!	!	!	!	!	!	!	!	!	!	!	!	!
8G\L	.	2r	.	2r	.	.	.	.	.	.	4g\	lux	lux	.	.	.	.	.
16GG/L	.	.	.	.	.	.	.	.	.	.	.	.	.	.	.	.	.	.
16AA/JJ	.	.	.	.	.	.	.	.	.	.	.	.	.	.	.	.	.	.
8BB-/L	7	.	.	.	.	.	.	.	.	.	(16a\LL	per-	per-	.	.	.	.	.
!	!	!	!	!	!	!	!	!	!	!	!LO:SIC:s=16b-	!	!	!	!	!	!	!
.	.	.	.	.	.	.	.	.	.	.	16b-\)	.	.	.	.	.	.	.
!	!	!	!	!	!	!	!	!	!	!	!LO:SIC:s=16g	!	!	!	!	!	!	!
8C/J	.	.	.	.	.	.	.	.	.	.	(16g\	.	.	.	.	.	.	.
.	.	.	.	.	.	.	.	.	.	.	16a\JJ)	.	.	.	.	.	.	.
8D\L	.	4r	.	4r	.	.	.	.	.	.	8.f#X\	-pe-	-pe-	.	.	.	.	.
8D\	.	.	.	.	.	.	.	.	.	.	.	.	.	.	.	.	.	.
.	.	.	.	.	.	.	.	.	.	.	16en\	-tu-	-tu-	.	.	.	.	.
8En\	.	8r	.	8r	.	.	.	.	.	.	4d\	-a	-a	.	.	.	.	.
8F#X\J	6	8a/	.	8dd\	.	.	.	.	.	.	.	.	.	.	.	.	.	.
=17	=17	=17	=17	=17	=17	=17	=17	=17	=17	=17	=17	=17	=17	=17	=17	=17	=17	=17
8G\L	-6r	8b-\L	.	8ee-X\L	00r	.	.	00r	.	.	1r	.	.	0r	.	.	.	.
8G\	#6r	8b-\	.	8een\	.	.	.	.	.	.	.	.	.	.	.	.	.	.
8A\	n6r	8cc\	.	8ff\	.	.	.	.	.	.	.	.	.	.	.	.	.	.
8A\J	#6r	8cc\J	.	8ff#X\J	.	.	.	.	.	.	.	.	.	.	.	.	.	.
8B-\L	6	4dd\	.	8gg\L	.	.	.	.	.	.	.	.	.	.	.	.	.	.
8A\	.	.	.	8dd\J	.	.	.	.	.	.	.	.	.	.	.	.	.	.
8G\	.	8r	.	[4gg\	.	.	.	.	.	.	.	.	.	.	.	.	.	.
8B-\J	.	8b-\	.	.	.	.	.	.	.	.	.	.	.	.	.	.	.	.
!LO:LB:g=original	!	!	!	!	!	!	!	!	!	!	!	!	!	!	!	!	!	!
=18	=18	=18	=18	=18	=18	=18	=18	=18	=18	=18	=18	=18	=18	=18	=18	=18	=18	=18
!	!	!	!	!LO:SIC:s=16ggLL]	!	!	!	!	!	!	!	!	!	!	!	!	!	!
!LO:TX:t=P:problem=mixed beam	!	!	!	!LO:N:xstem:cue	!	!	!	!	!	!	!	!	!	!	!	!	!	!
8c\L	.	8cc\L	.	16gg\]	.	.	.	.	.	.	2r	.	.	.	.	.	00r	00r
!	!	!	!	!LO:SIC:s=16bb-	!	!	!	!	!	!	!	!	!	!	!	!	!	!
.	.	.	.	16bb-LL\	.	.	.	.	.	.	.	.	.	.	.	.	.	.
8G\	.	8dd\J	.	16aa\	.	.	.	.	.	.	.	.	.	.	.	.	.	.
.	.	.	.	16gg\JJ	.	.	.	.	.	.	.	.	.	.	.	.	.	.
8d\	.	8.a/L	.	8.ff#X\L	.	.	.	.	.	.	.	.	.	.	.	.	.	.
8D/J	4	.	.	.	.	.	.	.	.	.	.	.	.	.	.	.	.	.
.	3	16a/Jk	.	16ff#\Jk	.	.	.	.	.	.	.	.	.	.	.	.	.	.
8G\L	.	4b-/	.	4gg\	.	.	.	.	.	.	4r	.	.	.	.	.	.	.
8A\	.	.	.	.	.	.	.	.	.	.	.	.	.	.	.	.	.	.
8B-\	.	4r	.	4r	.	.	.	.	.	.	4d\	Et	et	.	.	.	.	.
8F#X\J	6	.	.	.	.	.	.	.	.	.	.	.	.	.	.	.	.	.
=19	=19	=19	=19	=19	=19	=19	=19	=19	=19	=19	=19	=19	=19	=19	=19	=19	=19	=19
!LO:TX:t=P:problem=mixed beam	!	!	!	!LO:TX:a:mod= :t=5	!	!	!	!	!	!	!	!	!	!	!	!	!	!
8G\L	.	00r	.	00r	.	.	.	.	.	.	4g\	lux	lux	2r	.	.	.	.
16GG/L	.	.	.	.	.	.	.	.	.	.	.	.	.	.	.	.	.	.
16AA/JJ	.	.	.	.	.	.	.	.	.	.	.	.	.	.	.	.	.	.
8BB-/L	.	.	.	.	.	.	.	.	.	.	16a\LL	per-	per-	.	.	.	.	.
.	.	.	.	.	.	.	.	.	.	.	16b-\	.	.	.	.	.	.	.
8C/J	.	.	.	.	.	.	.	.	.	.	16g\	.	.	.	.	.	.	.
.	.	.	.	.	.	.	.	.	.	.	16a\JJ	.	.	.	.	.	.	.
4D/	.	.	.	.	.	.	.	.	.	.	8.f#X\	-pe-	-pe-	8.dd\L	lu-	lu-	.	.
.	.	.	.	.	.	.	.	.	.	.	16en\	-tu-	-tu-	16cc\Jk	.	.	.	.
8r	.	.	.	.	.	.	.	.	.	.	8d\	-a	-a	16b-\LL	.	.	.	.
.	.	.	.	.	.	.	.	.	.	.	.	.	.	16cc\	.	.	.	.
8F#X\	6	.	.	.	.	.	.	.	.	.	8r	.	.	16a\	.	.	.	.
.	.	.	.	.	.	.	.	.	.	.	.	.	.	16b-\JJ	.	.	.	.
=20	=20	=20	=20	=20	=20	=20	=20	=20	=20	=20	=20	=20	=20	=20	=20	=20	=20	=20
4G\	.	.	.	.	.	.	.	.	.	.	8.g\L	lu-	lu-	8.g/	.	.	.	.
.	.	.	.	.	.	.	.	.	.	.	16f\Jk	.	.	16g/	-ce-	-ce-	.	.
!	!	!	!	!	!	!	!	!	!	!	!LO:SIC:s=16e-LL	!	!	!	!	!	!	!
8r	.	.	.	.	.	.	.	.	.	.	(16e-\LL	.	.	4g/	-at	-at	.	.
.	.	.	.	.	.	.	.	.	.	.	16f\	.	.	.	.	.	.	.
8BBn/	6	.	.	.	.	.	.	.	.	.	16d\	.	.	.	.	.	.	.
!	!	!	!	!	!	!	!	!	!	!	!LO:SIC:s=16e-JJ	!	!	!	!	!	!	!
.	.	.	.	.	.	.	.	.	.	.	16e-\JJ)	.	.	.	.	.	.	.
4C/	.	.	.	.	.	.	.	.	.	.	8.c/	.	.	8.cc\L	lu-	lu-	.	.
.	.	.	.	.	.	.	.	.	.	.	16c/	-ce-	-ce-	16b-\Jk	.	.	.	.
8r	.	.	.	.	.	.	.	.	.	.	4c/	-at	-at	16a\LL	.	.	.	.
.	.	.	.	.	.	.	.	.	.	.	.	.	.	16b-\	.	.	.	.
8C/	.	.	.	.	.	.	.	.	.	.	.	.	.	16g\	.	.	.	.
.	.	.	.	.	.	.	.	.	.	.	.	.	.	16a\JJ	.	.	.	.
!	!	!	!	!	!	!	!	!	!	!	!LO:LB:g=original	!	!	!	!	!	!	!
=21	=21	=21	=21	=21	=21	=21	=21	=21	=21	=21	=21	=21	=21	=21	=21	=21	=21	=21
4F\	.	.	.	.	00r	.	.	00r	.	.	8.f\L	lu-	lu-	8.f/	.	.	.	.
.	.	.	.	.	.	.	.	.	.	.	16e-\Jk	.	.	16f/	-ce-	-ce-	.	.
8r	.	.	.	.	.	.	.	.	.	.	16d\LL	.	.	4f/	-at	-at	.	.
.	.	.	.	.	.	.	.	.	.	.	16e-\	.	.	.	.	.	.	.
8AA/	6	.	.	.	.	.	.	.	.	.	16c\	.	.	.	.	.	.	.
.	.	.	.	.	.	.	.	.	.	.	16d\JJ	.	.	.	.	.	.	.
!LO:TX:t=P:problem=mixed beam	!	!	!	!	!	!	!	!	!	!	!	!	!	!LO:LB:g=original	!	!	!	!
8BB-/L	.	.	.	.	.	.	.	.	.	.	8B-/	.	.	8b-\	lu-	lu-	.	.
8B-\	.	.	.	.	.	.	.	.	.	.	16f\	-ce-	-ce-	16cc\	-ce-	-ce-	.	.
.	.	.	.	.	.	.	.	.	.	.	16g\	-at	-at	16dd\	-at	-at	.	.
!	!	!	!	!	!	!	!	!	!	!	!	!	!	!LO:TX:t=P:problem=♮ above	!	!	!	!
8F\	.	.	.	.	.	.	.	.	.	.	4c/	e-	e-	4an\	e-	e-	.	.
8FF/J	4	.	.	.	.	.	.	.	.	.	.	.	.	.	.	.	.	.
.	3	.	.	.	.	.	.	.	.	.	.	.	.	.	.	.	.	.
=22	=22	=22	=22	=22	=22	=22	=22	=22	=22	=22	=22	=22	=22	=22	=22	=22	=22	=22
!LO:TX:t=P:problem=mixed beam	!	!	!	!	!	!	!	!	!	!	!	!	!	!	!	!	!	!
8BB-/L	.	.	.	.	.	.	.	.	.	.	4d\	-is	-is	4b-\	-is	-is	00r	00r
16d\L	.	.	.	.	.	.	.	.	.	.	.	.	.	.	.	.	.	.
16c\JJ	.	.	.	.	.	.	.	.	.	.	.	.	.	.	.	.	.	.
8.B-\L	.	.	.	.	.	.	.	.	.	.	4r	.	.	4r	.	.	.	.
16A\Jk	4	.	.	.	.	.	.	.	.	.	.	.	.	.	.	.	.	.
.	3	.	.	.	.	.	.	.	.	.	.	.	.	.	.	.	.	.
4G\	.	.	.	.	.	.	.	.	.	.	2r	.	.	8.dd\L	lu-	lu-	.	.
.	.	.	.	.	.	.	.	.	.	.	.	.	.	16cc\Jk	.	.	.	.
8r	.	.	.	.	.	.	.	.	.	.	.	.	.	16b-\LL	.	.	.	.
.	.	.	.	.	.	.	.	.	.	.	.	.	.	16cc\	.	.	.	.
8F#X\	6	.	.	.	.	.	.	.	.	.	.	.	.	16a\	.	.	.	.
.	.	.	.	.	.	.	.	.	.	.	.	.	.	16b-\JJ	.	.	.	.
=23	=23	=23	=23	=23	=23	=23	=23	=23	=23	=23	=23	=23	=23	=23	=23	=23	=23	=23
4G\	.	1r	.	1r	.	.	.	.	.	.	8.g\L	lu-	lu-	8.g/	.	.	.	.
.	.	.	.	.	.	.	.	.	.	.	16f\Jk	.	.	16g/	-ce-	-ce-	.	.
8r	.	.	.	.	.	.	.	.	.	.	16e-\LL	.	.	4g/	-at	-at	.	.
.	.	.	.	.	.	.	.	.	.	.	16f\	.	.	.	.	.	.	.
8BBn/	6	.	.	.	.	.	.	.	.	.	16d\	.	.	.	.	.	.	.
.	.	.	.	.	.	.	.	.	.	.	16e-\JJ	.	.	.	.	.	.	.
*	*	*	*	*	*	*	*	*	*	*	*	*	*	*	*ij	*ij	*	*
4C/	.	.	.	.	.	.	.	.	.	.	8.c/	.	.	8.cc\L	lu-	lu-	.	.
.	.	.	.	.	.	.	.	.	.	.	16c/	-ce-	-ce-	16b-\Jk	.	.	.	.
8r	.	.	.	.	.	.	.	.	.	.	4c/	-at	-at	16a\LL	.	.	.	.
.	.	.	.	.	.	.	.	.	.	.	.	.	.	16b-\	.	.	.	.
8C/	.	.	.	.	.	.	.	.	.	.	.	.	.	16g\	.	.	.	.
.	.	.	.	.	.	.	.	.	.	.	.	.	.	16a\JJ	.	.	.	.
!LO:LB:g=original	!	!	!	!	!	!	!	!	!	!	!	!	!	!	!	!	!	!
=24	=24	=24	=24	=24	=24	=24	=24	=24	=24	=24	=24	=24	=24	=24	=24	=24	=24	=24
8D\L	.	2r	.	2r	.	.	.	.	.	.	8.d\L	lu-	lu-	8.f#X/	.	.	.	.
8En\	.	.	.	.	.	.	.	.	.	.	.	.	.	.	.	.	.	.
!	!	!	!	!	!	!	!	!	!	!	!LO:TX:t=P:problem=♮ above	!	!	!	!	!	!	!
.	.	.	.	.	.	.	.	.	.	.	16en\Jk	.	.	16f#/	-ce-	-ce-	.	.
8F#X\	.	.	.	.	.	.	.	.	.	.	16d\LL	.	.	4f#/	-at	-at	.	.
*	*	*	*	*	*	*	*	*	*	*	*	*	*	*	*Xij	*Xij	*	*
!	!	!	!	!	!	!	!	!	!	!	!LO:TX:t=P:problem=♮ above	!	!	!	!	!	!	!
.	.	.	.	.	.	.	.	.	.	.	16en\	.	.	.	.	.	.	.
8D\J	.	.	.	.	.	.	.	.	.	.	16f#X\	.	.	.	.	.	.	.
.	.	.	.	.	.	.	.	.	.	.	16d\JJ	.	.	.	.	.	.	.
!LO:TX:t=P:problem=mixed beam	!	!	!	!	!	!	!	!	!	!	!	!	!	!	!	!	!	!
8G\L	.	4r	.	4r	.	.	.	.	.	.	8g\	.	.	8g\	lu-	lu-	.	.
8c\	.	.	.	.	.	.	.	.	.	.	16g\	-ce-	-ce-	16a\	-ce-	-ce-	.	.
.	.	.	.	.	.	.	.	.	.	.	16g\	-at	-at	16b-\	-at	-at	.	.
8d\	.	8r	.	8r	.	.	.	.	.	.	4f#X\	e-	e-	4a\	e-	e-	.	.
8D/J	4	8a/	.	8dd\	.	.	.	.	.	.	.	.	.	.	.	.	.	.
.	3	.	.	.	.	.	.	.	.	.	.	.	.	.	.	.	.	.
=25	=25	=25	=25	=25	=25	=25	=25	=25	=25	=25	=25	=25	=25	=25	=25	=25	=25	=25
8G\L	-6r	8b-\L	.	8ee-X\L	0r	.	.	0r	.	.	4g\	-is	-is	4g/	-is	-is	.	.
8G\	n6r	8b-\	.	8een\	.	.	.	.	.	.	.	.	.	.	.	.	.	.
8A\	-n6r	8cc\	.	8ff\	.	.	.	.	.	.	4r	.	.	4r	.	.	.	.
!	!LO:SIC:s=#6r	!	!	!	!	!	!	!	!	!	!	!	!	!	!	!	!	!
8A\J	n6r	8cc\J	.	8ff#X\J	.	.	.	.	.	.	.	.	.	.	.	.	.	.
8B-\L	6	4dd\	.	8gg\L	.	.	.	.	.	.	2r	.	.	2r	.	.	.	.
8A\	.	.	.	8dd\J	.	.	.	.	.	.	.	.	.	.	.	.	.	.
8G\	.	8r	.	[4gg\	.	.	.	.	.	.	.	.	.	.	.	.	.	.
8B-\J	.	8b-\	.	.	.	.	.	.	.	.	.	.	.	.	.	.	.	.
!	!	!LO:LB:g=original	!	!	!	!	!	!	!	!	!	!	!	!	!	!	!	!
=26	=26	=26	=26	=26	=26	=26	=26	=26	=26	=26	=26	=26	=26	=26	=26	=26	=26	=26
!	!	!	!	!LO:SIC:s=16ggLL]	!	!	!	!	!	!	!	!	!	!	!	!	!	!
!LO:TX:t=P:problem=mixed beam	!	!	!	!LO:N:xstem:cue	!	!	!	!	!	!	!	!	!	!	!	!	!	!
8c\L	.	8cc\L	.	16gg\]	.	.	.	.	.	.	1r	.	.	2r	.	.	1r	1r
!	!	!	!	!LO:SIC:s=16bb-	!	!	!	!	!	!	!	!	!	!	!	!	!	!
.	.	.	.	16bb-LL\	.	.	.	.	.	.	.	.	.	.	.	.	.	.
8G\	.	8dd\J	.	16aa\	.	.	.	.	.	.	.	.	.	.	.	.	.	.
.	.	.	.	16gg\JJ	.	.	.	.	.	.	.	.	.	.	.	.	.	.
8d\	.	8.a\L	.	8.ff#X\L	.	.	.	.	.	.	.	.	.	.	.	.	.	.
8D/J	4	.	.	.	.	.	.	.	.	.	.	.	.	.	.	.	.	.
.	3	16a\Jk	.	16ff#\Jk	.	.	.	.	.	.	.	.	.	.	.	.	.	.
!LO:TX:t=P:problem=mixed beam	!	!	!	!	!	!	!	!	!	!	!	!	!	!	!	!	!	!
!LO:TX:b:i:mod= :t=Tutti	!	!	!	!	!	!	!	!	!	!	!	!	!	!	!	!	!	!
8GG/L	.	8b-/L	.	4gg\	.	.	.	.	.	.	.	.	.	8r	.	.	.	.
!LO:MO:mod=*clefG2	!	!	!	!	!	!	!	!	!	!	!	!	!	!	!	!	!	!
*clefC1	*	*	*	*	*	*	*	*	*	*	*	*	*	*	*	*	*	*
8g\	.	8g/	.	.	.	.	.	.	.	.	.	.	.	8g\	Et	et	.	.
8b-\	.	8b-/	.	4r	.	.	.	.	.	.	.	.	.	8b-\	lux	lux	.	.
8g\J	.	8g/J	.	.	.	.	.	.	.	.	.	.	.	8g\	per-	per-	.	.
=27	=27	=27	=27	=27	=27	=27	=27	=27	=27	=27	=27	=27	=27	=27	=27	=27	=27	=27
8dd\L	.	8dd\L	.	8r	8r	.	.	8r	.	.	8r	.	.	8.dd\	-pe-	-pe-	8r	8r
*clefF4	*	*	*	*	*	*	*	*	*	*	*	*	*	*	*	*	*	*
8D\	.	8dd\	.	8aa\L	8D\	Et	et	8A\	Et	et	8f#X\	Et	et	.	.	.	8a/L	8dd\L
.	.	.	.	.	.	.	.	.	.	.	.	.	.	16dd\	-tu-	-tu-	.	.
8F#X\	6	8ff#X\	.	8aa\	8F#X\	lux	lux	8d\	lux	lux	8f#\	lux	lux	4dd\	-a	-a	8a/	8dd\
!	!	!	!	!	!	!	!	!	!	!	!	!	!	!	!	!	!	!LO:TX:t=P:problem=# above
8D\J	.	8dd\J	.	8aa\J	8D\	per-	per-	8A\	per-	per-	8f#\	per-	per-	.	.	.	8a/J	8ff#X\J
!	!	!	!	!	!	!	!	!	!	!	!	!	!	!	!	!	!	!LO:LB:g=original
4G\	.	8gg\L	.	8.bb-\L	8.G\	-pe-	-pe-	8.B-\	-pe-	-pe-	8.g\	-pe-	-pe-	8.dd\L	lu-	lu-	8.b-/L	8.gg\L
.	.	8dd\	.	.	.	.	.	.	.	.	.	.	.	.	.	.	.	.
!	!	!	!	!	!	!	!	!	!	!	!	!	!	!	!	!	!LO:N:vis=8	!
.	.	.	.	16bb-\K	16G\	-tu-	-tu-	16B-\	-tu-	-tu-	16g\	-tu-	-tu-	16cc\Jk	.	.	16b-/K	16gg\K
!	!	!	!	!	!	!	!	!	!	!	!	!	!	!LO:SIC:s=16b-LL	!	!	!	!
8r	.	8dd\J	.	8bb-\J	8G\	-a	-a	8B-\	-a	-a	8g\	-a	-a	(16b-\LL	.	.	8b-/J	8gg\J
.	.	.	.	.	.	.	.	.	.	.	.	.	.	16cc\	.	.	.	.
8F#X\	6	8r	.	8r	8r	.	.	8r	.	.	8r	.	.	16a\	.	.	8r	8r
!	!	!	!	!	!	!	!	!	!	!	!	!	!	!LO:SIC:s=16b-JJ	!	!	!	!
.	.	.	.	.	.	.	.	.	.	.	.	.	.	16b-\JJ)	.	.	.	.
!	!	!	!	!LO:LB:g=original	!	!	!	!	!	!	!LO:LB:g=original	!	!	!LO:LB:g=original	!	!	!	!
=28	=28	=28	=28	=28	=28	=28	=28	=28	=28	=28	=28	=28	=28	=28	=28	=28	=28	=28
!	!	!	!	!	!	!	!	!	!	!	!	!	!	!	!	!	!LO:TX:t=P:problem=♭ above	!
4G\	.	4b-X\	.	4dd\	8.G\L	Lu-	lu-	8.B-\L	Lu-	lu-	4g\	lu-	lu-	8.g/	.	.	4b-X\	4dd\
.	.	.	.	.	16F\Jk	.	.	16c\Jk	.	.	.	.	.	16g/	-ce-	-ce-	.	.
8r	.	8r	.	8r	16E-\LL	.	.	16B-\LL	.	.	16g\LL	.	.	4g/	-at	-at	8r	8r
!	!	!	!	!	!	!	!	!LO:SIC:s=16c	!	!	!	!	!	!	!	!	!	!
.	.	.	.	.	16F\	.	.	(16c\	.	.	16a-X\	.	.	.	.	.	.	.
!	!	!	!	!	!	!	!	!LO:SIC:s=16d	!	!	!LO:SIC:s=16f	!	!	!	!	!	!LO:TX:t=P:problem=♮ above	!
8BBn/	6	8bn\	.	8dd\	16D\	.	.	16d\)	.	.	(16f\	.	.	.	.	.	8bn\	8dd\
!	!	!	!	!	!	!	!	!LO:TX:t=P:problem=♮ above	!	!	!LO:SIC:s=16gJJ	!	!	!	!	!	!	!
.	.	.	.	.	16E-\JJ	.	.	16Bn\JJ	.	.	16g\JJ)	.	.	.	.	.	.	.
!	!	!	!	!	!	!	!	!	!	!	!	!	!	!	!	!	!LO:LB:g=original	!
4C/	.	4cc\	.	4gg\	8.C/	.	.	8.c\	.	.	8.e-\	.	.	8.cc\L	lu-	lu-	4cc\	4gg\
.	.	.	.	.	16C/	-ce-	-ce-	16c\	-ce-	-ce-	16e-\	-ce-	-ce-	16b-\Jk	.	.	.	.
8r	.	8r	.	8r	4C/	-at	-at	4c\	-at	-at	4e-\	-at	-at	16a\LL	.	.	8r	8r
.	.	.	.	.	.	.	.	.	.	.	.	.	.	16b-\	.	.	.	.
8C/	.	8ee-\	.	8gg\	.	.	.	.	.	.	.	.	.	16g\	.	.	8ee-\	8gg\
.	.	.	.	.	.	.	.	.	.	.	.	.	.	16a\JJ	.	.	.	.
!LO:LB:g=original	!	!	!	!	!LO:LB:g=original	!	!	!LO:LB:g=original	!	!	!	!	!	!	!	!	!	!
=29	=29	=29	=29	=29	=29	=29	=29	=29	=29	=29	=29	=29	=29	=29	=29	=29	=29	=29
4F\	.	4cc\	.	4aa\	8.F\L	Lu-	lu-	8.A\L	Lu-	lu-	[4f\	lu-	lu-	8.f/	.	.	4cc\	4aa\
.	.	.	.	.	16E-\Jk	.	.	16B-\Jk	.	.	.	.	.	16f/	-ce-	-ce-	.	.
8r	.	8r	.	8r	16D\LL	.	.	16A\LL	.	.	16f\LL]	.	.	4f/	-at	-at	8r	8r
.	.	.	.	.	16E-\	.	.	16B-\	.	.	16g\	.	.	.	.	.	.	.
8AA/	6	8cc\	.	8ff\	16C\	.	.	16c\	.	.	16e-\	.	.	.	.	.	8cc\	8ff\
.	.	.	.	.	16D\JJ	.	.	16A\JJ	.	.	16f\JJ	.	.	.	.	.	.	.
!LO:TX:t=P:problem=mixed beam	!	!	!	!	!	!	!	!	!	!	!	!	!	!	!	!	!	!
8BB-/L	.	8dd\L	.	8ff\L	8BB-/	.	.	8B-\	.	.	8d\	.	.	8dd\	lu-	lu-	8dd\L	8ff\L
8B-\	.	8dd\	.	8bb-\	16BB-/	-ce-	-ce-	16B-\	-ce-	-ce-	16d\	-ce-	-ce-	16ee-\	-ce-	-ce-	16cc\L	16ee-\L
.	.	.	.	.	16BB-/	-at	-at	16B-\	-at	-at	16d\	-at	-at	16ff\	-at	-at	16b-\JJ	16dd\JJ
8F\	.	8cc\	.	8.aa\	4F\	e-	e-	4A\	e-	e-	4f\	e-	e-	4cc\	e-	e-	8.f/L	8.cc\L
8FF/J	4	8cc\J	.	.	.	.	.	.	.	.	.	.	.	.	.	.	.	.
.	3	.	.	16aa\Jk	.	.	.	.	.	.	.	.	.	.	.	.	16e-/Jk	16b-\Jk
=30	=30	=30	=30	=30	=30	=30	=30	=30	=30	=30	=30	=30	=30	=30	=30	=30	=30	=30
!LO:TX:t=P:problem=mixed beam	!	!	!	!	!	!	!	!	!	!	!	!	!	!	!	!	!	!
8BB-/L	.	4dd\	.	4bb-\	4BB-/	-is	-is	4B-\	-is	-is	4f\	-is	-is	4b-\	-is	-is	4d/	4b-/
16d\L	.	.	.	.	.	.	.	.	.	.	.	.	.	.	.	.	.	.
16c\JJ	.	.	.	.	.	.	.	.	.	.	.	.	.	.	.	.	.	.
8.B-\L	.	4r	.	4r	4r	.	.	4r	.	.	4r	.	.	4r	.	.	4r	4r
16A\Jk	4	.	.	.	.	.	.	.	.	.	.	.	.	.	.	.	.	.
.	3	.	.	.	.	.	.	.	.	.	.	.	.	.	.	.	.	.
4G\	.	2r	.	2r	2r	.	.	2r	.	.	2r	.	.	8.dd\L	lu-	lu-	2r	2r
.	.	.	.	.	.	.	.	.	.	.	.	.	.	16cc\Jk	.	.	.	.
8r	.	.	.	.	.	.	.	.	.	.	.	.	.	16b-\LL	.	.	.	.
.	.	.	.	.	.	.	.	.	.	.	.	.	.	16cc\	.	.	.	.
8F#X\	6	.	.	.	.	.	.	.	.	.	.	.	.	16a\	.	.	.	.
.	.	.	.	.	.	.	.	.	.	.	.	.	.	16b-\JJ	.	.	.	.
=31	=31	=31	=31	=31	=31	=31	=31	=31	=31	=31	=31	=31	=31	=31	=31	=31	=31	=31
!	!	!	!	!	!	!	!	!	!	!	!LO:SIC:s=[4g	!	!	!	!	!	!	!
4G\	.	4b-X\	.	4dd\	8.G\L	lu-	lu-	8.B-\L	lu-	lu-	4g\	lu-	lu-	8.g/	.	.	4b-\	4dd\
!	!	!	!	!	!LO:SIC:s=16FJk	!	!	!	!	!	!	!	!	!	!	!	!	!
.	.	.	.	.	(16F\Jk	.	.	16c\Jk	.	.	.	.	.	16g/	-ce-	-ce-	.	.
!	!	!	!	!	!LO:SIC:s=16E-LL	!	!	!	!	!	!LO:SIC:s=16gLL]	!	!	!	!	!	!	!
8r	.	8r	.	8r	16E-\LL)	.	.	16B-\LL	.	.	16g\LL	.	.	4g/	-at	-at	8r	8r
.	.	.	.	.	16F\	.	.	16c\	.	.	16a-X\	.	.	.	.	.	.	.
8BBn/	6	8bn\	.	8dd\	16D\	.	.	16d\	.	.	16f\	.	.	.	.	.	8bn\	8dd\
!	!	!	!	!	!	!	!	!LO:TX:t=P:problem=♮ above	!	!	!	!	!	!	!	!	!	!
.	.	.	.	.	16E-\JJ	.	.	16Bn\JJ	.	.	16g\JJ	.	.	.	.	.	.	.
4C/	.	4cc\	.	4gg\	8.C/	.	.	8.c\	.	.	8.e-\	.	.	8.cc\L	lu-	lu-	4cc\	4gg\
.	.	.	.	.	16C/	-ce-	-ce-	16c\	-ce-	-ce-	16e-\	-ce-	-ce-	16b-\Jk	.	.	.	.
8r	.	8r	.	8r	4C/	-at	-at	4c\	-at	-at	4e-\	-at	-at	16a\LL	.	.	8r	8r
.	.	.	.	.	.	.	.	.	.	.	.	.	.	16b-\	.	.	.	.
8C/	.	8ee-\	.	8gg\	.	.	.	.	.	.	.	.	.	16g\	.	.	8ee-\	8gg\
.	.	.	.	.	.	.	.	.	.	.	.	.	.	16a\JJ	.	.	.	.
=32	=32	=32	=32	=32	=32	=32	=32	=32	=32	=32	=32	=32	=32	=32	=32	=32	=32	=32
*	*	*	*	*	*	*	*	*	*ij	*ij	*	*	*	*	*	*	*	*
8D\L	.	4a/	.	4ff#X\	8D\L	lu-	lu-	8.d\	lu-	lu-	8f#X\L	lu-	lu-	8.f#X/	.	.	4a/	4ff#X\
8En\	.	.	.	.	8En\	.	.	.	.	.	8g\	.	.	.	.	.	.	.
.	.	.	.	.	.	.	.	16d\	-ce-	-ce-	.	.	.	16f#/	-ce-	-ce-	.	.
!	!	!	!	!	!LO:TX:t=P:problem=# above	!	!	!	!	!	!	!	!	!	!	!	!	!
8F#X\	.	8r	.	8r	8F#X\	.	.	4d\	-at	-at	8a\	.	.	4f#/	-at	-at	8r	8r
*	*	*	*	*	*	*	*	*	*Xij	*Xij	*	*	*	*	*	*	*	*
!	!	!	!	!	!	!	!	!	!	!	!	!	!	!	!	!	!	!LO:TX:t=P:problem=# above
8D\J	.	8ff#X\	.	8aa\	8D\J	.	.	.	.	.	8f#\J	.	.	.	.	.	8dd\	8ff#X\
!LO:TX:t=P:problem=mixed beam	!	!	!	!	!	!	!	!	!	!	!	!	!	!	!	!	!	!
8G\L	.	8gg\L	.	8bb-\L	8G\	.	.	8d\	lu-	lu-	8g\	.	.	8b-\	lu-	lu-	8b-\L	8gg\L
16BB-/L	.	8b-\J	.	8gg\J	16BB-/	-ce-	-ce-	16d\	-ce-	-ce-	16g\	-ce-	-ce-	16cc\	-ce-	-ce-	8cc\J	16aa\L
16C/JJ	.	.	.	.	16C/	-at	-at	16e-\	-at	-at	16g\	-at	-at	16dd\	-at	-at	.	16gg\JJ
!LO:TX:t=P:problem=mixed beam	!	!	!	!	!	!	!	!	!	!	!	!	!	!	!	!	!	!LO:TX:t=P:problem=# above
8D\L	.	4a/	.	4ff#X\	4D/	e-	e-	4d\	e-	e-	4f#X\	e-	e-	4a\	e-	e-	4a/	4ff#X\
8DD/J	4	.	.	.	.	.	.	.	.	.	.	.	.	.	.	.	.	.
.	3	.	.	.	.	.	.	.	.	.	.	.	.	.	.	.	.	.
!	!	!LO:LB:g=original	!	!	!	!	!	!	!	!	!	!	!	!	!	!	!	!
=33	=33	=33	=33	=33	=33	=33	=33	=33	=33	=33	=33	=33	=33	=33	=33	=33	=33	=33
8GG/L	.	8b-/L	.	8gg\L	4GG/	-is	-is	4d\	-is	-is	4g\	-is	-is	4g\	-is	-is	4b-/	4gg\
8AA/	.	8b-/	.	8dd\	.	.	.	.	.	.	.	.	.	.	.	.	.	.
8BB-/	.	8b-/	.	8dd\	4r	.	.	4r	.	.	4r	.	.	4r	.	.	4r	4r
8GG/J	.	8b-/J	.	8dd\J	.	.	.	.	.	.	.	.	.	.	.	.	.	.
8AA/L	.	8a/L	.	16cc\LL	2r	.	.	2r	.	.	2r	.	.	2r	.	.	2r	2r
.	.	.	.	16dd\	.	.	.	.	.	.	.	.	.	.	.	.	.	.
8C/	.	8g/J	.	16b-\	.	.	.	.	.	.	.	.	.	.	.	.	.	.
.	.	.	.	16cc\JJ	.	.	.	.	.	.	.	.	.	.	.	.	.	.
8D/	6	4f#X/	.	4a/	.	.	.	.	.	.	.	.	.	.	.	.	.	.
8DD/J	.	.	.	.	.	.	.	.	.	.	.	.	.	.	.	.	.	.
=34	=34	=34	=34	=34	=34	=34	=34	=34	=34	=34	=34	=34	=34	=34	=34	=34	=34	=34
!	!	!	!	!	!	!	!	!	!	!	!	!	!	!LO:TX:a:mod= :t=1	!	!	!	!
8GG/L	.	4g/	.	4g/	1r	.	.	1r	.	.	1r	.	.	1r	.	.	8r	8r
16C/L	.	.	.	.	.	.	.	.	.	.	.	.	.	.	.	.	8ee-\L	8gg\L
16D/JJ	.	.	.	.	.	.	.	.	.	.	.	.	.	.	.	.	.	.
8E-/L	.	4r	.	4r	.	.	.	.	.	.	.	.	.	.	.	.	8ee-\	8gg\
8C/J	.	.	.	.	.	.	.	.	.	.	.	.	.	.	.	.	8ee-\J	8gg\J
!LO:LB:g=original	!	!	!	!	!	!	!	!	!	!	!	!	!	!	!	!	!	!
!LO:TX:t=P:problem=mixed beam	!	!	!	!	!	!	!	!	!	!	!	!	!	!	!	!	!	!
8D\L	.	2r	.	2r	.	.	.	.	.	.	.	.	.	.	.	.	8dd\L	16ff\LL
.	.	.	.	.	.	.	.	.	.	.	.	.	.	.	.	.	.	16gg\
8F\	.	.	.	.	.	.	.	.	.	.	.	.	.	.	.	.	8cc\J	16ee-\
.	.	.	.	.	.	.	.	.	.	.	.	.	.	.	.	.	.	16ff\JJ
8G\	.	.	.	.	.	.	.	.	.	.	.	.	.	.	.	.	4g/	8.ddm\L
8GG/J	4	.	.	.	.	.	.	.	.	.	.	.	.	.	.	.	.	.
.	3	.	.	.	.	.	.	.	.	.	.	.	.	.	.	.	.	16cc\Jk
!	!	!	!	!	!	!	!	!	!	!	!	!	!	!LO:LB:g=original	!	!	!	!LO:LB:g=original
=35	=35	=35	=35	=35	=35	=35	=35	=35	=35	=35	=35	=35	=35	=35	=35	=35	=35	=35
8C\L	.	8r	.	2r	2r	.	.	2r	.	.	8r	.	.	2r	.	.	4e-/	4cc\
!LO:MO:mod=*clefG2	!	!	!	!	!	!	!	!	!	!	!	!	!	!	!	!	!	!
*clefC3	*	*	*	*	*	*	*	*	*	*	*	*	*	*	*	*	*	*
8c\	.	8cc\L	.	.	.	.	.	.	.	.	8c/	Et	et	.	.	.	.	.
8e-\	.	8ee-\	.	.	.	.	.	.	.	.	8e-\	lux	lux	.	.	.	4r	4r
!	!	!	!	!	!	!	!	!	!	!	!LO:LB:g=original	!	!	!	!	!	!	!
8c\J	.	8cc\J	.	.	.	.	.	.	.	.	8c/	per-	per-	.	.	.	.	.
!	!	!	!	!	!	!	!	!LO:LB:g=original	!	!	!	!	!	!	!	!	!	!
8g\L	.	8dd\L	.	8r	8r	.	.	8r	.	.	8.g\	-pe-	-pe-	8r	.	.	8r	8r
*clefF4	*	*	*	*	*	*	*	*	*	*	*	*	*	*	*	*	*	*
!	!	!LO:TX:t=P:problem=♮ above	!	!	!LO:LB:g=original	!	!	!	!	!	!	!	!	!	!	!	!LO:TX:t=P:problem=♮ above	!
8G\	.	8bn\	.	8gg\L	8G\	Et	et	8Bn\	Et	et	.	.	.	8dd\	Et	et	8bn\L	8dd\L
.	.	.	.	.	.	.	.	.	.	.	16g\	-tu-	-tu-	.	.	.	.	.
8Bn\	.	8dd\	.	8gg\	8Bn\	lux	lux	8d\	lux	lux	4g\	-a	-a	8dd\	lux	lux	8g\	8dd\
!	!	!LO:TX:t=P:problem=♮ above	!	!	!	!	!	!	!	!	!	!	!	!	!	!	!	!
8G\J	.	8bn\J	.	8gg\J	8G\	per-	per-	8B\	per-	per-	.	.	.	8dd\	per-	per-	8b\J	8dd\J
!	!	!	!	!	!	!	!	!	!	!	!	!	!	!	!	!	!LO:LB:g=original	!
=36	=36	=36	=36	=36	=36	=36	=36	=36	=36	=36	=36	=36	=36	=36	=36	=36	=36	=36
4c\	.	8.ee-\L	.	8.gg\L	8.c\	-pe-	-pe-	8.c\	-pe-	-pe-	8.g\L	lu-	lu-	8.ee-\	-pe-	-pe-	8cc\L	8.ee-\L
.	.	.	.	.	.	.	.	.	.	.	.	.	.	.	.	.	8gg\	.
.	.	16ee-\K	.	16gg\Jk	16c\	-tu-	-tu-	16c\	-tu-	-tu-	16f\Jk	.	.	16ee-\	-tu-	-tu-	.	16ee-\K
!	!	!	!	!LO:LB:g=original	!	!	!	!	!	!	!	!	!	!	!	!	!	!
8r	.	8ee-\J	.	8gg\	8c\	-a	-a	8c\	-a	-a	16e-\LL	.	.	4ee-\	-a	-a	8cc\J	8ee-\J
.	.	.	.	.	.	.	.	.	.	.	16f\	.	.	.	.	.	.	.
8Bn\	6	8r	.	8r	8r	.	.	8r	.	.	16d\	.	.	.	.	.	8r	8r
.	.	.	.	.	.	.	.	.	.	.	16e-\JJ	.	.	.	.	.	.	.
4c\	.	4ee-\	.	4gg\	8.c\L	Lu-	lu-	8.c\L	lu-	lu-	8.c/	.	.	8.ee-\L	lu-	lu-	4ee-\	4gg\
.	.	.	.	.	16B-\Jk	.	.	16d\Jk	.	.	16c/	-ce-	-ce-	16dd\Jk	.	.	.	.
8r	.	8r	.	8r	16A-X\LL	.	.	16c\LL	.	.	4c/	-at	-at	16cc\LL	.	.	8r	8r
.	.	.	.	.	16B-\	.	.	16d\	.	.	.	.	.	16dd\	.	.	.	.
8En\	#n6r	8ee-\	.	8gg\	16G\	.	.	16e-\	.	.	.	.	.	16b-\	.	.	8ee-\	8gg\
.	.	.	.	.	16A-\JJ	.	.	16c\JJ	.	.	.	.	.	16cc\JJ	.	.	.	.
=37	=37	=37	=37	=37	=37	=37	=37	=37	=37	=37	=37	=37	=37	=37	=37	=37	=37	=37
!	!	!	!	!	!	!	!	!	!	!	!	!	!	!LO:SIC:v:s=8.a-	!	!	!	!
4F\	-	4cc\	.	4aa-X\	8.F\	.	.	8.f\	.	.	8.f\L	lu-	lu-	8.a\	.	.	4ff\	4aa-X\
!	!	!	!	!	!	!	!	!	!	!	!	!	!	!LO:SIC:v:s=16a-	!	!	!	!
.	.	.	.	.	16F\	-ce-	-ce-	16f\	-ce-	-ce-	16e-\Jk	.	.	16a\	-ce-	-ce-	.	.
!	!	!	!	!	!	!	!	!	!	!	!	!	!	!LO:SIC:v:s=4a-	!	!	!	!
8r	.	8r	.	8r	4F\	-at	-at	4f\	-at	-at	16d\LL	.	.	4a\	-at	-at	8r	8r
.	.	.	.	.	.	.	.	.	.	.	16e-\	.	.	.	.	.	.	.
8F\	-	8cc\	.	8aa-\	.	.	.	.	.	.	16c\	.	.	.	.	.	8cc\	8aa-\
.	.	.	.	.	.	.	.	.	.	.	16d\JJ	.	.	.	.	.	.	.
4B-\	.	4dd\	.	4ff\	8.B-\L	lu-	lu-	8.B-\L	lu-	lu-	8.B-/	.	.	8.dd\L	lu-	lu-	4dd\	4ff\
!	!	!	!	!	!LO:SIC:v:s=16A-Jk	!	!	!	!	!	!	!	!	!	!	!	!	!
.	.	.	.	.	(16A\Jk	.	.	16c\Jk	.	.	16B-/	-ce-	-ce-	16cc\Jk	.	.	.	.
!	!	!	!	!	!LO:SIC:s=16GLL	!	!	!	!	!	!	!	!	!	!	!	!	!
8r	.	8r	.	8r	16G\LL)	.	.	16B-\LL	.	.	4B-/	-at	-at	16b-\LL	.	.	8r	8r
.	.	.	.	.	16A-X\	.	.	16c\	.	.	.	.	.	16cc\	.	.	.	.
8D\	6	8b-\	.	8ff\	16F\	.	.	16d\	.	.	.	.	.	16dd\	.	.	8b-\	8ff\
.	.	.	.	.	16G\JJ	.	.	16B-\JJ	.	.	.	.	.	16b-\JJ	.	.	.	.
=38	=38	=38	=38	=38	=38	=38	=38	=38	=38	=38	=38	=38	=38	=38	=38	=38	=38	=38
!LO:TX:t=P:problem=mixed beam	!	!	!	!	!	!	!	!	!	!	!	!	!	!	!	!	!	!
8E-\L	.	8b-\L	.	8gg\L	8E-\	.	.	8e-\	.	.	8g\	lu-	lu-	8ee-\	.	.	8b-\L	8gg\L
!	!	!	!	!LO:TX:t=P:problem=♭ above	!	!	!	!	!	!	!	!	!	!	!	!	!	!
8e-\	.	8b-\	.	16aa-X\L	16E-\	-ce-	-ce-	16B-\	-ce-	-ce-	16g\	-ce-	-ce-	16ee-\	-ce-	-ce-	8ee-\	16aa-X\L
.	.	.	.	16gg\JJ	16E-\	-at	-at	16B-\	-at	-at	16g\	-at	-at	16ee-\	-at	-at	.	16gg\JJ
8B-\	.	8b-\	.	8ff\L	4B-\	e-	e-	4B-\	e-	e-	4f\	e-	e-	4dd\	e-	e-	8dd\	8.ffM\L
8BB-/J	4	8ff\J	.	8bb-\J	.	.	.	.	.	.	.	.	.	.	.	.	8dd\J	.
.	3	.	.	.	.	.	.	.	.	.	.	.	.	.	.	.	.	16ff\Jk
8E-\L	.	4b-\	.	4gg\	4E-\	-is	-is	4B-\	-is	-is	4g\	-is	-is	4ee-\	-is	-is	4ee-\	4gg\
16G\L	.	.	.	.	.	.	.	.	.	.	.	.	.	.	.	.	.	.
16F\JJ	.	.	.	.	.	.	.	.	.	.	.	.	.	.	.	.	.	.
8.E-\L	.	4r	.	4r	4r	.	.	4r	.	.	4r	.	.	4r	.	.	4r	4r
16D\Jk	.	.	.	.	.	.	.	.	.	.	.	.	.	.	.	.	.	.
=39	=39	=39	=39	=39	=39	=39	=39	=39	=39	=39	=39	=39	=39	=39	=39	=39	=39	=39
4C/	.	2r	.	2r	2r	.	.	2r	.	.	8.g\L	lu-	lu-	2r	.	.	2r	2r
.	.	.	.	.	.	.	.	.	.	.	16f\Jk	.	.	.	.	.	.	.
8r	.	.	.	.	.	.	.	.	.	.	16e-\LL	.	.	.	.	.	.	.
.	.	.	.	.	.	.	.	.	.	.	16f\	.	.	.	.	.	.	.
8BBn/	6	.	.	.	.	.	.	.	.	.	16d\	.	.	.	.	.	.	.
.	.	.	.	.	.	.	.	.	.	.	16e-\JJ	.	.	.	.	.	.	.
4C/	.	4ee-\	.	4gg\	8.c\L	lu-	lu-	8.c\L	Lu-	lu-	8.c/	.	.	8.ee-\L	lu-	lu-	4ee-\	4gg\
.	.	.	.	.	16B-\Jk	.	.	16d\Jk	.	.	16c/	-ce-	-ce-	16dd\Jk	.	.	.	.
8r	.	8r	.	8r	16A-X\LL	.	.	16c\LL	.	.	4c/	-at	-at	16cc\LL	.	.	8r	8r
.	.	.	.	.	16B-\	.	.	16d\	.	.	.	.	.	16dd\	.	.	.	.
!LO:LB:g=original	!	!	!	!	!	!	!	!	!	!	!	!	!	!	!	!	!	!
8En\	#n6r	8ee-\	.	8gg\	16G\	.	.	16e-\	.	.	.	.	.	16b-\	.	.	8ee-\	8gg\
.	.	.	.	.	16A-\JJ	.	.	16c\JJ	.	.	.	.	.	16cc\JJ	.	.	.	.
!	!	!	!	!	!LO:LB:g=original	!	!	!LO:LB:g=original	!	!	!	!	!	!	!	!	!	!
=40	=40	=40	=40	=40	=40	=40	=40	=40	=40	=40	=40	=40	=40	=40	=40	=40	=40	=40
!	!	!	!	!LO:TX:t=P:problem=♭ above	!	!	!	!	!	!	!	!	!	!	!	!	!	!
4F\	-	4cc\	.	4aa-X\	8.F\	.	.	8.f\	.	.	8.f\L	lu-	lu-	8.a-X\	.	.	4ff\	4aa-X\
.	.	.	.	.	16F\	-ce-	-ce-	16f\	-ce-	-ce-	16e-\Jk	.	.	16a-\	-ce-	-ce-	.	.
8r	.	8r	.	8r	4F\	-at	-at	4f\	-at	-at	16d\LL	.	.	4a-\	-at	-at	8r	8r
.	.	.	.	.	.	.	.	.	.	.	16e-\	.	.	.	.	.	.	.
!	!	!	!	!	!	!	!	!	!	!	!	!	!	!	!	!	!	!LO:TX:t=P:problem=♭ above
8F\	-	8cc\	.	8aa-\	.	.	.	.	.	.	16c\	.	.	.	.	.	8cc\	8aa-X\
.	.	.	.	.	.	.	.	.	.	.	16d\JJ	.	.	.	.	.	.	.
!	!	!LO:TX:t=P:problem=♮ above	!	!	!	!	!	!	!	!	!LO:LB:g=original	!	!	!	!	!	!LO:TX:t=P:problem=♮ above	!
8G\L	.	4bn\	.	4dd\	8G\L	lu-	lu-	8d\L	Lu-	lu-	8.Bn/	.	.	8bn\L	lu-	lu-	4bn\	4dd\
8A\	.	.	.	.	8A\	.	.	8c\	.	.	.	.	.	8cc\	.	.	.	.
.	.	.	.	.	.	.	.	.	.	.	16B/	-ce-	-ce-	.	.	.	.	.
8Bn\	6	8r	.	8r	8Bn\	.	.	8Bn\	.	.	4B/	-at	-at	8dd\	.	.	8r	8r
!	!	!LO:TX:t=P:problem=♮ above	!	!	!	!	!	!	!	!	!	!	!	!LO:TX:t=P:problem=♮ above	!	!	!LO:TX:t=P:problem=♮ above	!
8G\J	.	8bn\	.	8dd\	8G\J	.	.	8d\J	.	.	.	.	.	8bn\J	.	.	8bn\	8dd\
!	!	!LO:LB:g=original	!	!	!	!	!	!	!	!	!	!	!	!	!	!	!	!
=41	=41	=41	=41	=41	=41	=41	=41	=41	=41	=41	=41	=41	=41	=41	=41	=41	=41	=41
8c\L	.	8cc\L	.	8ee-\L	8c\	.	.	8c\	.	.	8g\	lu-	lu-	8cc\	-ce-	.	8ee-\L	8gg\L
!	!	!	!	!	!	!	!	!	!	!	!	!	!	!LO:TX:t=P:problem=brak jednej nuty (uszkodzony papier)	!	!	!	!
!	!	!	!	!	!	!	!	!	!	!	!	!	!	!LO:MO:mod=16cc@	!	!	!	!
16E-\L	.	8ee-\	.	8gg\	16E-\	-ce-	-ce-	16c\	-ce-	-ce-	16g\	-ce-	-ce-	16ryy	.	-ce-	16dd\L	16ff\L
!	!	!	!	!	!	!	!	!	!	!	!	!	!	!LO:LB:g=original	!	!	!	!
16F\JJ	.	.	.	.	16F\	-at	-at	16c\	-at	-at	16a-X\	-at	-at	16ee-\	-at	-at	16cc\JJ	16ee-\JJ
!LO:TX:t=P:problem=mixed beam	!	!	!	!	!	!	!	!	!	!	!	!	!	!	!	!	!	!
8G\L	.	8dd\	.	8.gg\	4G\	e-	e-	4Bn\	e-	e-	4g\	e-	e-	4bn\	e-	e-	4g/	8.dd\L
!	!	!LO:TX:t=P:problem=♮ above	!	!	!	!	!	!	!	!	!	!	!	!	!	!	!	!
8GG/J	4	8bn\J	.	.	.	.	.	.	.	.	.	.	.	.	.	.	.	.
.	3	.	.	16gg\Jk	.	.	.	.	.	.	.	.	.	.	.	.	.	16cc\Jk
8C/L	.	4cc\	.	4gg\	4C/	-is	-is.	4c\	-is	-is.	4g\	-is	-is.	4cc\	-is	-is.	4e-/	4cc\
8D/	.	.	.	.	.	.	.	.	.	.	.	.	.	.	.	.	.	.
8E-/	.	8r	.	8r	4r	.	.	4r	.	.	4r	.	.	4r	.	.	4r	4r
8BBn/J	6	8d/	.	8g/	.	.	.	.	.	.	.	.	.	.	.	.	.	.
!	!	!	!	!	!	!	!	!	!	!	!	!	!	!	!	!	!	!LO:LB:g=original
=42	=42	=42	=42	=42	=42	=42	=42	=42	=42	=42	=42	=42	=42	=42	=42	=42	=42	=42
!	!	!	!	!	!	!	!	!LO:TX:a:mod= :t=4	!	!	!	!	!	!	!	!	!	!
8C/L	-6r	8e-/L	.	8a-X/L	00r	.	.	00r	.	.	00r	.	.	00r	.	.	2r	2r
8C/	n6r	8e-/	.	8an/	.	.	.	.	.	.	.	.	.	.	.	.	.	.
8D/	-6r	8f/	.	8b-X/	.	.	.	.	.	.	.	.	.	.	.	.	.	.
8D/J	n6r	8f/J	.	8bn/J	.	.	.	.	.	.	.	.	.	.	.	.	.	.
8E-\L	6	4g/	.	8cc\L	.	.	.	.	.	.	.	.	.	.	.	.	4r	4r
8D\	.	.	.	8g\J	.	.	.	.	.	.	.	.	.	.	.	.	.	.
8C\	.	8r	.	[4cc\	.	.	.	.	.	.	.	.	.	.	.	.	8r	8r
8E-\J	.	8g/	.	.	.	.	.	.	.	.	.	.	.	.	.	.	8ee-\	8gg\
=43	=43	=43	=43	=43	=43	=43	=43	=43	=43	=43	=43	=43	=43	=43	=43	=43	=43	=43
!	!	!	!	!LO:SIC:s=16ccLL]	!	!	!	!	!	!	!	!	!	!	!	!	!	!
!LO:TX:t=P:problem=mixed beam	!	!	!	!LO:N:xstem:cue	!	!	!	!	!	!	!	!	!	!	!	!	!	!
8F\L	7	8g/L	.	16cc\]	.	.	.	.	.	.	.	.	.	.	.	.	8cc\L	16ff\LL
!	!	!	!	!LO:SIC:s=16ee-	!	!	!	!	!	!	!	!	!	!	!	!	!	!
.	.	.	.	16ee-\LL	.	.	.	.	.	.	.	.	.	.	.	.	.	16ee-\
8C\	.	8g/	.	16dd\	.	.	.	.	.	.	.	.	.	.	.	.	8g\J	16dd\
.	.	.	.	16cc\JJ	.	.	.	.	.	.	.	.	.	.	.	.	.	16cc\JJ
!	!	!	!	!LO:LB:g=original	!	!	!	!	!	!	!	!	!	!	!	!	!	!
8G\	.	8d/	.	8.bnm\L	.	.	.	.	.	.	.	.	.	.	.	.	4g/	8.dd\L
8GG/J	4	8d/J	.	.	.	.	.	.	.	.	.	.	.	.	.	.	.	.
.	3	.	.	16b\Jk	.	.	.	.	.	.	.	.	.	.	.	.	.	16cc\Jk
8C/L	.	4e-/	.	4cc\	.	.	.	.	.	.	.	.	.	.	.	.	4e-/	4cc\
8D/	.	.	.	.	.	.	.	.	.	.	.	.	.	.	.	.	.	.
8E-/	.	8r	.	8r	.	.	.	.	.	.	.	.	.	.	.	.	4r	4r
8BBn/J	6	8d/	.	8g/	.	.	.	.	.	.	.	.	.	.	.	.	.	.
!	!	!	!	!	!	!	!	!	!	!	!	!	!	!	!	!	!LO:LB:g=original	!
=44	=44	=44	=44	=44	=44	=44	=44	=44	=44	=44	=44	=44	=44	=44	=44	=44	=44	=44
8C/L	-6r	8e-/L	.	8a-X/L	.	.	.	.	.	.	.	.	.	.	.	.	2r	2r
8C/	n6r	8e-/	.	8an/	.	.	.	.	.	.	.	.	.	.	.	.	.	.
8D/	-6r	8f/	.	8b-X/	.	.	.	.	.	.	.	.	.	.	.	.	.	.
8D/J	n6r	8f/J	.	8bn/J	.	.	.	.	.	.	.	.	.	.	.	.	.	.
8E-\L	6	4g/	.	8cc\L	.	.	.	.	.	.	.	.	.	.	.	.	4r	4r
8D\	.	.	.	8g\J	.	.	.	.	.	.	.	.	.	.	.	.	.	.
8C\	.	8r	.	[4cc\	.	.	.	.	.	.	.	.	.	.	.	.	8r	8r
8E-\J	.	8g/	.	.	.	.	.	.	.	.	.	.	.	.	.	.	8ee-\	8gg\
!LO:LB:g=original	!	!	!	!	!	!	!	!	!	!	!	!	!	!	!	!	!	!
=45	=45	=45	=45	=45	=45	=45	=45	=45	=45	=45	=45	=45	=45	=45	=45	=45	=45	=45
!	!	!	!	!LO:SIC:s=16ccLL]	!	!	!	!	!	!	!	!	!	!	!	!	!	!
!LO:TX:t=P:problem=mixed beam	!	!	!	!LO:N:xstem:cue	!	!	!	!	!	!	!	!	!	!	!	!	!	!
8F\L	7	8g/L	.	16cc\]	.	.	.	.	.	.	.	.	.	.	.	.	8cc/L	16ff\LL
!	!	!	!	!LO:SIC:s=16ee-	!	!	!	!	!	!	!	!	!	!	!	!	!	!
.	.	.	.	16ee-\LL	.	.	.	.	.	.	.	.	.	.	.	.	.	16ee-\
8C\	.	8g/	.	16dd\	.	.	.	.	.	.	.	.	.	.	.	.	8g/J	16dd\
.	.	.	.	16cc\JJ	.	.	.	.	.	.	.	.	.	.	.	.	.	16cc\JJ
8G\	.	8d/	.	8.bnm\L	.	.	.	.	.	.	.	.	.	.	.	.	4g/	8.dd\L
8GG/J	.	8d/J	.	.	.	.	.	.	.	.	.	.	.	.	.	.	.	.
.	.	.	.	16b\Jk	.	.	.	.	.	.	.	.	.	.	.	.	.	16cc\Jk
!	!	!LO:TX:t=P:problem=kreska taktowa z obustronną repetycją	!	!	!	!	!	!	!	!	!	!	!	!	!	!	!	!
2C/	.	2en/	.	2cc\	.	.	.	.	.	.	.	.	.	.	.	.	2en/	2cc\
=46||	=46||	=46||	=46||	=46||	=46||	=46||	=46||	=46||	=46||	=46||	=46||	=46||	=46||	=46||	=46||	=46||	=46||	=46||
*M2/2	*	*M2/2	*	*M2/2	*M2/2	*	*	*M2/2	*	*	*M2/2	*	*	*M2/2	*	*	*M2/2	*M2/2
*met(c|)	*	*met(c|)	*	*met(c|)	*met(c|)	*	*	*met(c|)	*	*	*met(c|)	*	*	*met(c|)	*	*	*met(c|)	*met(c|)
*mmet(c|)	*	*mmet(c|)	*	*mmet(c|)	*mmet(c|)	*	*	*mmet(c|)	*	*	*mmet(c|)	*	*	*mmet(c|)	*	*	*mmet(c|)	*mmet(c|)
!LO:TX:a:i:mod= :t=B. Solo	!	!	!	!LO:TX:b:i:mod= :t=Tedecet	!	!	!	!	!	!	!LO:TX:b:i:mod= ::t=Tedecet	!	!	!LO:TX:a:i:mod= :t=Bas.	!	!	!	!LO:TX:a:mod= :t=B.
!LO:TX:b:i:mod= :t=Tedecet himnus.	!	!LO:TX:b:i:mod= :t=Tedecet	!	!LO:TX:a:i:mod= :t=B.	!LO:TX:a:i:mod= :t=tarde	!	!	!LO:TX:b:i:mod= ::t=Tacet	!	!	!LO:TX:a:i:mod= ::t=B.	!	!	!LO:TX:b:i:mod= ::t=Tedecet.	!	!	!LO:TX:b:i:mod= :t=Tedecet	!LO:TX:b:i:mod= :t=Tedecet.
8E-\L	.	00r	.	00r	2E-\	Te	Te	00r	.	.	00r	.	.	00r	.	.	00r	00r
8G\	6	.	.	.	.	.	.	.	.	.	.	.	.	.	.	.	.	.
8E-\J	.	.	.	.	.	.	.	.	.	.	.	.	.	.	.	.	.	.
8r	.	.	.	.	.	.	.	.	.	.	.	.	.	.	.	.	.	.
8BB-/L	.	.	.	.	2F\	de-	de-	.	.	.	.	.	.	.	.	.	.	.
8D/	.	.	.	.	.	.	.	.	.	.	.	.	.	.	.	.	.	.
8BB-/J	.	.	.	.	.	.	.	.	.	.	.	.	.	.	.	.	.	.
8r	.	.	.	.	.	.	.	.	.	.	.	.	.	.	.	.	.	.
=47	=47	=47	=47	=47	=47	=47	=47	=47	=47	=47	=47	=47	=47	=47	=47	=47	=47	=47
8E-\L	.	.	.	.	2G\	-cet	-cet	.	.	.	.	.	.	.	.	.	.	.
8G\	6	.	.	.	.	.	.	.	.	.	.	.	.	.	.	.	.	.
8E-\J	.	.	.	.	.	.	.	.	.	.	.	.	.	.	.	.	.	.
8r	.	.	.	.	.	.	.	.	.	.	.	.	.	.	.	.	.	.
8e-\L	.	.	.	.	4G\	him-	hym-	.	.	.	.	.	.	.	.	.	.	.
8B-\	.	.	.	.	.	.	.	.	.	.	.	.	.	.	.	.	.	.
8E-\J	.	.	.	.	4G\	-nu(s)	-nus	.	.	.	.	.	.	.	.	.	.	.
8r	.	.	.	.	.	.	.	.	.	.	.	.	.	.	.	.	.	.
=48	=48	=48	=48	=48	=48	=48	=48	=48	=48	=48	=48	=48	=48	=48	=48	=48	=48	=48
8E-\L	.	.	.	.	4G\	De-	De-	.	.	.	.	.	.	.	.	.	.	.
8G\	6	.	.	.	.	.	.	.	.	.	.	.	.	.	.	.	.	.
8E-\J	.	.	.	.	4G\	-us	-us	.	.	.	.	.	.	.	.	.	.	.
8r	.	.	.	.	.	.	.	.	.	.	.	.	.	.	.	.	.	.
8F\L	.	.	.	.	4.A-X\	In	in	.	.	.	.	.	.	.	.	.	.	.
8D\	.	.	.	.	.	.	.	.	.	.	.	.	.	.	.	.	.	.
8BB-\J	4	.	.	.	.	.	.	.	.	.	.	.	.	.	.	.	.	.
.	3	.	.	.	.	.	.	.	.	.	.	.	.	.	.	.	.	.
8r	.	.	.	.	(16G\LL	si-	Si-	.	.	.	.	.	.	.	.	.	.	.
.	.	.	.	.	16F\JJ)	.	.	.	.	.	.	.	.	.	.	.	.	.
=49	=49	=49	=49	=49	=49	=49	=49	=49	=49	=49	=49	=49	=49	=49	=49	=49	=49	=49
1EE-	.	.	.	.	1G	-on	-on.	.	.	.	.	.	.	.	.	.	.	.
!LO:LB:g=original	!	!	!	!	!LO:LB:g=original	!	!	!	!	!	!	!	!	!	!	!	!	!
=50||	=50||	=50||	=50||	=50||	=50||	=50||	=50||	=50||	=50||	=50||	=50||	=50||	=50||	=50||	=50||	=50||	=50||	=50||
*M2/2	*	*M2/2	*	*M2/2	*M2/2	*	*	*M2/2	*	*	*M2/2	*	*	*M2/2	*	*	*M2/2	*M2/2
*met(c|)	*	*met(c|)	*	*met(c|)	*met(c|)	*	*	*met(c|)	*	*	*met(c|)	*	*	*met(c|)	*	*	*met(c|)	*met(c|)
*mmet(c|)	*	*mmet(c|)	*	*mmet(c|)	*mmet(c|)	*	*	*mmet(c|)	*	*	*mmet(c|)	*	*	*mmet(c|)	*	*	*mmet(c|)	*mmet(c|)
!LO:TX:b:i:mod= :t=Et tibi. al. Te.	!	!	!	!LO:TX:b:i:mod= :t=Et tibi	!	!	!	!	!	!	!	!	!	!	!	!	!	!
!LO:TX:a:i:mod= :t=Solo	!	!LO:TX:b:i:mod= :t=Et tibi	!	!LO:TX:a:mod= :t=7	!	!	!	!	!	!	!LO:TX:t=P:problem=nad pauzą niezrozumiała adnotacja	!	!	!	!	!	!LO:TX:b:i:mod= :t=Et tibi	!LO:TX:b:i:mod= :t=Et tibi.
4C/	.	00r	.	00r	00r	.	.	2r	.	.	8r	.	.	00r	.	.	0r	0r
.	.	.	.	.	.	.	.	.	.	.	8c/	Et	Et	.	.	.	.	.
4r	.	.	.	.	.	.	.	.	.	.	(16c\LL	ti-	ti-	.	.	.	.	.
.	.	.	.	.	.	.	.	.	.	.	16d\	.	.	.	.	.	.	.
.	.	.	.	.	.	.	.	.	.	.	16c\	.	.	.	.	.	.	.
.	.	.	.	.	.	.	.	.	.	.	16d\JJ)	.	.	.	.	.	.	.
4C/	.	.	.	.	.	.	.	8r	.	.	8e-\	-bi	-bi	.	.	.	.	.
.	.	.	.	.	.	.	.	8c\	Et	Et	8e-\	et	et	.	.	.	.	.
!	!	!	!	!	!	!	!	!LO:SIC:s=(16cLL	!	!	!	!	!	!	!	!	!	!
4r	.	.	.	.	.	.	.	16c\LL	ti-	ti-	(16e-\LL	ti-	ti-	.	.	.	.	.
.	.	.	.	.	.	.	.	16d\	.	.	16f\	.	.	.	.	.	.	.
.	.	.	.	.	.	.	.	16c\	.	.	16e-\	.	.	.	.	.	.	.
!	!	!	!	!	!	!	!	!LO:SIC:s=16dJJ)	!	!	!	!	!	!	!	!	!	!
.	.	.	.	.	.	.	.	16d\JJ	.	.	16f\JJ)	.	.	.	.	.	.	.
=51	=51	=51	=51	=51	=51	=51	=51	=51	=51	=51	=51	=51	=51	=51	=51	=51	=51	=51
!	!	!	!	!	!	!	!	!	!	!	!LO:SIC:s=8g	!	!	!	!	!	!	!
4C/	.	.	.	.	.	.	.	8e-\	-bi	-bi	8g,\	-bi	-bi	.	.	.	.	.
.	.	.	.	.	.	.	.	8e-\	red-	red-	8g\	red-	red-	.	.	.	.	.
4F\	-	.	.	.	.	.	.	8f\	-de-	-de-	8a-X\	-de-	-de-	.	.	.	.	.
!	!	!	!	!	!	!	!	!LO:SIC:s=(16fLL	!	!	!	!	!	!	!	!	!	!
.	.	.	.	.	.	.	.	16f\LL	-tur	-tur	(16a-\LL	-tur	-tur	.	.	.	.	.
!	!	!	!	!	!	!	!	!LO:SIC:s=16e-JJ)	!	!	!	!	!	!	!	!	!	!
.	.	.	.	.	.	.	.	16e-\JJ	.	.	16g\JJ)	.	.	.	.	.	.	.
!	!	!	!	!	!	!	!	!LO:LB:g=original	!	!	!	!	!	!	!	!	!	!
8BB-/L	.	.	.	.	.	.	.	8d\	vo-	vo-	8f\	vo-	vo-	.	.	.	.	.
8C/	.	.	.	.	.	.	.	8d\	-tu(m)	-tum	8f\	-tu(m)	-tum	.	.	.	.	.
8D/	.	.	.	.	.	.	.	8r	.	.	8r	.	.	.	.	.	.	.
8BB-/J	.	.	.	.	.	.	.	8d\	red-	red-	8f\	red-	red-	.	.	.	.	.
=52	=52	=52	=52	=52	=52	=52	=52	=52	=52	=52	=52	=52	=52	=52	=52	=52	=52	=52
4E-\	.	.	.	.	.	.	.	8e-\	-de-	-de-	8g\	-de-	-de-	.	.	.	1r	1r
.	.	.	.	.	.	.	.	(16e-\LL	-tur	-tur	(16g\LL	-tur	-tur	.	.	.	.	.
.	.	.	.	.	.	.	.	16d\JJ)	.	.	16f\JJ)	.	.	.	.	.	.	.
!	!	!	!	!	!	!	!	!	!	!	!LO:LB:g=original	!	!	!	!	!	!	!
4C/	.	.	.	.	.	.	.	8c\	vo-	vo-	8e-\	vo-	vo-	.	.	.	.	.
.	.	.	.	.	.	.	.	8c\	-tu(m)	-tum	8e-\	-tum	-tum	.	.	.	.	.
!LO:TX:t=P:problem=mixed beam	!	!	!	!	!	!	!	!	!	!	!	!	!	!	!	!	!	!
8A-X\L	6	.	.	.	.	.	.	(16d\LL	In	in	(16f\LL	in	in	.	.	.	.	.
.	5	.	.	.	.	.	.	16e-\JJ)	.	.	16g\JJ)	.	.	.	.	.	.	.
!	!	!	!	!	!	!	!	!LO:SIC:s=(16cLL	!	!	!	!	!	!	!	!	!	!
8F\	.	.	.	.	.	.	.	16c\LL	ie-	Je-	(16e-\LL	Je-	Je-	.	.	.	.	.
!	!	!	!	!	!	!	!	!LO:SIC:s=16dJJ)	!	!	!	!	!	!	!	!	!	!
.	.	.	.	.	.	.	.	16d\JJ	.	.	16f\JJ)	.	.	.	.	.	.	.
8G\	.	.	.	.	.	.	.	8.Bn\	-ru-	-ru-	8.d\	-ru-	-ru-	.	.	.	.	.
8GG/J	4	.	.	.	.	.	.	.	.	.	.	.	.	.	.	.	.	.
.	3	.	.	.	.	.	.	16B\	-ſa-	-ſa-	16c\	-sa-	-sa-	.	.	.	.	.
=53	=53	=53	=53	=53	=53	=53	=53	=53	=53	=53	=53	=53	=53	=53	=53	=53	=53	=53
!LO:TX:b:i:mod= :t=Hautb.	!	!	!	!	!	!	!	!	!	!	!	!	!	!	!	!	!	!
4C/	.	.	.	.	.	.	.	4c\	-lem	-lem	4c/	-lem	-lem	.	.	.	2r	8r
!	!	!	!	!	!	!	!	!	!	!	!	!	!	!	!	!	!	!LO:TX:a:i:mod= :t=Solo
.	.	.	.	.	.	.	.	.	.	.	.	.	.	.	.	.	.	8cc\
4r	.	.	.	.	.	.	.	4r	.	.	4r	.	.	.	.	.	.	16cc\LL
.	.	.	.	.	.	.	.	.	.	.	.	.	.	.	.	.	.	16dd\
.	.	.	.	.	.	.	.	.	.	.	.	.	.	.	.	.	.	16cc\
.	.	.	.	.	.	.	.	.	.	.	.	.	.	.	.	.	.	16dd\JJ
4C/	.	.	.	.	.	.	.	2r	.	.	2r	.	.	.	.	.	8r	8ee-\L
.	.	.	.	.	.	.	.	.	.	.	.	.	.	.	.	.	8cc\	8ee-\J
4r	.	.	.	.	.	.	.	.	.	.	.	.	.	.	.	.	16cc\LL	16ee-\LL
.	.	.	.	.	.	.	.	.	.	.	.	.	.	.	.	.	16dd\	16ff\
.	.	.	.	.	.	.	.	.	.	.	.	.	.	.	.	.	16cc\	16ee-\
.	.	.	.	.	.	.	.	.	.	.	.	.	.	.	.	.	16dd\JJ	16ff\JJ
=54	=54	=54	=54	=54	=54	=54	=54	=54	=54	=54	=5	=54	=54	=54	=54	=54	=54	=54
4C/	.	0r	.	0r	00r	.	.	00r	.	.	00r	.	.	0r	.	.	8ee-\L	8gg\L
.	.	.	.	.	.	.	.	.	.	.	.	.	.	.	.	.	8ee-\J	8gg\J
4F\	-	.	.	.	.	.	.	.	.	.	.	.	.	.	.	.	8ff\L	8aa-X\L
.	.	.	.	.	.	.	.	.	.	.	.	.	.	.	.	.	16ff\L	16aa-\L
.	.	.	.	.	.	.	.	.	.	.	.	.	.	.	.	.	16ee-\JJ	16gg\JJ
8BB-/L	.	.	.	.	.	.	.	.	.	.	.	.	.	.	.	.	8dd\L	8ff\L
8C/	.	.	.	.	.	.	.	.	.	.	.	.	.	.	.	.	8dd\J	8ff\J
!	!	!	!	!	!	!	!	!	!	!	!	!	!	!	!	!	!	!LO:LB:g=original
8D/	.	.	.	.	.	.	.	.	.	.	.	.	.	.	.	.	8r	8r
8BB-/J	.	.	.	.	.	.	.	.	.	.	.	.	.	.	.	.	8dd\	8ff\
=55	=55	=55	=55	=55	=55	=55	=55	=55	=55	=55	=55	=55	=55	=55	=55	=55	=55	=55
4E-\	.	.	.	.	.	.	.	.	.	.	.	.	.	.	.	.	8ee-\L	8gg\L
.	.	.	.	.	.	.	.	.	.	.	.	.	.	.	.	.	16ee-\L	16gg\L
.	.	.	.	.	.	.	.	.	.	.	.	.	.	.	.	.	16dd\JJ	16ff\JJ
4C/	.	.	.	.	.	.	.	.	.	.	.	.	.	.	.	.	8cc\L	8ee-\L
.	.	.	.	.	.	.	.	.	.	.	.	.	.	.	.	.	8cc\J	8ee-\J
!LO:TX:t=P:problem=mixed beam	!	!	!	!	!	!	!	!	!	!	!	!	!	!	!	!	!	!
8A-X\L	6	.	.	.	.	.	.	.	.	.	.	.	.	.	.	.	16dd\LL	16ff\LL
.	5	.	.	.	.	.	.	.	.	.	.	.	.	.	.	.	16ee-\	16gg\
8F\	.	.	.	.	.	.	.	.	.	.	.	.	.	.	.	.	16cc\	16ee-\
.	.	.	.	.	.	.	.	.	.	.	.	.	.	.	.	.	16dd\JJ	16ff\JJ
8G\	.	.	.	.	.	.	.	.	.	.	.	.	.	.	.	.	4g/	8.ddm\L
8GG/J	4	.	.	.	.	.	.	.	.	.	.	.	.	.	.	.	.	.
.	3	.	.	.	.	.	.	.	.	.	.	.	.	.	.	.	.	16cc\Jk
=56	=56	=56	=56	=56	=56	=56	=56	=56	=56	=56	=56	=56	=56	=56	=56	=56	=56	=56
8C/L	.	1r	.	1r	.	.	.	.	.	.	.	.	.	4r	.	.	4e-/	4cc\
8D/	.	.	.	.	.	.	.	.	.	.	.	.	.	.	.	.	.	.
8E-/	.	.	.	.	.	.	.	.	.	.	.	.	.	4ee-\	Ex-	Ex-	4r	4r
8C/J	.	.	.	.	.	.	.	.	.	.	.	.	.	.	.	.	.	.
!LO:LB:g=original	!	!	!	!	!	!	!	!	!	!	!	!	!	!	!	!	!	!
!LO:TX:b:i:mod= :t=Exaudi. Canto.	!	!	!	!	!	!	!	!	!	!	!	!	!	!	!	!	!	!
4G\	-	.	.	.	.	.	.	.	.	.	.	.	.	4dd\	-au-	-au-	2r	2r
4D/	4	.	.	.	.	.	.	.	.	.	.	.	.	8.b-\	-di	-di	.	.
.	#3r	.	.	.	.	.	.	.	.	.	.	.	.	16a\	ex-	ex-	.	.
=57	=57	=57	=57	=57	=57	=57	=57	=57	=57	=57	=57	=57	=57	=57	=57	=57	=57	=57
4GG/	.	4r	.	4r	.	.	.	.	.	.	.	.	.	8b-\	-au-	-au-	00r	00r
.	.	.	.	.	.	.	.	.	.	.	.	.	.	8g/	-di	-di	.	.
4C/	-	4cc\	.	4ee-\	.	.	.	.	.	.	.	.	.	4r	.	.	.	.
4G\	-	4b-\	.	4dd\	.	.	.	.	.	.	.	.	.	2r	.	.	.	.
4D\	4	8.g/L	.	8.b-M\L	.	.	.	.	.	.	.	.	.	.	.	.	.	.
.	#3r	16f#X/Jk	.	16a\Jk	.	.	.	.	.	.	.	.	.	.	.	.	.	.
!	!	!LO:LB:g=original	!	!	!	!	!	!	!	!	!	!	!	!	!	!	!	!
=58	=58	=58	=58	=58	=58	=58	=58	=58	=58	=58	=58	=58	=58	=58	=58	=58	=58	=58
4GG/	.	4g/	.	8b-/L	00r	.	.	00r	.	.	00r	.	.	4r	.	.	.	.
.	.	.	.	8g/J	.	.	.	.	.	.	.	.	.	.	.	.	.	.
4C/	-	4r	.	4r	.	.	.	.	.	.	.	.	.	4ee-\	Ex-	ex-	.	.
4G\	-	2r	.	2r	.	.	.	.	.	.	.	.	.	4dd\	-au-	-au-	.	.
4D\	x 4	.	.	.	.	.	.	.	.	.	.	.	.	8.b-\	-di	-di	.	.
*	*	*	*	*	*	*	*	*	*	*	*	*	*	*	*ij	*ij	*	*
.	# 3	.	.	.	.	.	.	.	.	.	.	.	.	16a\	Ex-	ex-	.	.
=59	=59	=59	=59	=59	=59	=59	=59	=59	=59	=59	=59	=59	=59	=59	=59	=59	=59	=59
!	!	!	!	!LO:TX:a:mod= :t=2	!	!	!	!	!	!	!	!	!	!	!	!	!	!
8GG/L	.	0r	.	0r	.	.	.	.	.	.	.	.	.	8b-\	-au-	-au-	.	.
8AA/	.	.	.	.	.	.	.	.	.	.	.	.	.	8g/	-di	-di	.	.
*	*	*	*	*	*	*	*	*	*	*	*	*	*	*	*Xij	*Xij	*	*
8BB-/	.	.	.	.	.	.	.	.	.	.	.	.	.	8r	.	.	.	.
8GG/J	.	.	.	.	.	.	.	.	.	.	.	.	.	8dd\	ex-	ex-	.	.
8C/L	.	.	.	.	.	.	.	.	.	.	.	.	.	8ee-\	-au-	-au-	.	.
8BB-/	.	.	.	.	.	.	.	.	.	.	.	.	.	8ee-\	-di	-di	.	.
8AA/	6	.	.	.	.	.	.	.	.	.	.	.	.	8ee-\L	De-	De-	.	.
!	!	!	!	!	!	!	!	!	!	!	!	!	!	!LO:SIC:s=16ddL	!	!	!	!
8FF/J	.	.	.	.	.	.	.	.	.	.	.	.	.	(16dd\L	.	.	.	.
!	!	!	!	!	!	!	!	!	!	!	!	!	!	!LO:SIC:s=16ccJJ	!	!	!	!
.	.	.	.	.	.	.	.	.	.	.	.	.	.	16cc\JJ)	.	.	.	.
=60	=60	=60	=60	=60	=60	=60	=60	=60	=60	=60	=60	=60	=60	=60	=60	=60	=60	=60
8BB-/L	.	.	.	.	.	.	.	.	.	.	.	.	.	4dd\	-us	-us	.	.
8C/	.	.	.	.	.	.	.	.	.	.	.	.	.	.	.	.	.	.
8D/	.	.	.	.	.	.	.	.	.	.	.	.	.	8r	.	.	.	.
8BB-/J	.	.	.	.	.	.	.	.	.	.	.	.	.	8dd\	O-	o-	.	.
!	!	!	!	!	!	!	!	!	!	!	!	!	!	!LO:LB:g=original	!	!	!	!
8G\L	.	.	.	.	.	.	.	.	.	.	.	.	.	8g/	-ra-	-ra-	.	.
8F#X\	6	.	.	.	.	.	.	.	.	.	.	.	.	8a/	-ti-	-ti-	.	.
8E-X\	.	.	.	.	.	.	.	.	.	.	.	.	.	8b-\	-o-	-o-	.	.
8D\J	.	.	.	.	.	.	.	.	.	.	.	.	.	8dd\	-nem	-nem	.	.
=61	=61	=61	=61	=61	=61	=61	=61	=61	=61	=61	=61	=61	=61	=61	=61	=61	=61	=61
!LO:TX:t=P:problem=mixed beam	!	!	!	!	!	!	!	!	!	!	!	!	!	!	!	!	!	!
8E-\L	6	2r	.	2r	.	.	.	.	.	.	.	.	.	16cc\LL	me-	me-	00r	00r
.	5	.	.	.	.	.	.	.	.	.	.	.	.	16dd\	.	.	.	.
8C\	.	.	.	.	.	.	.	.	.	.	.	.	.	16b-\	.	.	.	.
.	.	.	.	.	.	.	.	.	.	.	.	.	.	16cc\JJ	.	.	.	.
8D\	.	.	.	.	.	.	.	.	.	.	.	.	.	4a\	.	.	.	.
8DD\J	4	.	.	.	.	.	.	.	.	.	.	.	.	.	.	.	.	.
.	3	.	.	.	.	.	.	.	.	.	.	.	.	.	.	.	.	.
!LO:TX:t=P:problem=mixed beam	!	!	!	!	!	!	!	!	!	!	!	!	!	!	!	!	!	!
8GG/L	.	4r	.	4r	.	.	.	.	.	.	.	.	.	4g/	-am	-am	.	.
16G\L	.	.	.	.	.	.	.	.	.	.	.	.	.	.	.	.	.	.
16A\JJ	.	.	.	.	.	.	.	.	.	.	.	.	.	.	.	.	.	.
8B-\L	.	4a/	.	4dd\	.	.	.	.	.	.	.	.	.	4r	.	.	.	.
8F#X\J	6	.	.	.	.	.	.	.	.	.	.	.	.	.	.	.	.	.
=62	=62	=62	=62	=62	=62	=62	=62	=62	=62	=62	=62	=62	=62	=62	=62	=62	=62	=62
!	!	!	!	!	!	!	!	!	!	!	!	!	!	!LO:TX:a:mod= :t=1.	!	!	!	!
8G\L	-6r	8b-\L	.	8ee-X\L	1r	.	.	1r	.	.	1r	.	.	1r	.	.	.	.
!	!	!	!	!LO:SIC:s=8ee	!	!	!	!	!	!	!	!	!	!	!	!	!	!
8G\	n6r	8b-\	.	8een\J	.	.	.	.	.	.	.	.	.	.	.	.	.	.
!	!	!	!	!LO:LB:g=original	!	!	!	!	!	!	!	!	!	!	!	!	!	!
!	!	!	!	!LO:TX:t=P:problem=♮ above	!	!	!	!	!	!	!	!	!	!	!	!	!	!
!	!	!	!	!LO:SIC:s=8ff	!	!	!	!	!	!	!	!	!	!	!	!	!	!
8A\	-n6r	8cc\	.	8ffn\L	.	.	.	.	.	.	.	.	.	.	.	.	.	.
!	!LO:SIC:s=#6r	!	!	!	!	!	!	!	!	!	!	!	!	!	!	!	!	!
8A\J	n6r	8dd\J	.	8ff#X\J	.	.	.	.	.	.	.	.	.	.	.	.	.	.
!LO:LB:g=original	!	!	!	!	!	!	!	!	!	!	!	!	!	!	!	!	!	!
8B-\L	6	4dd\	.	8gg\L	.	.	.	.	.	.	.	.	.	.	.	.	.	.
8A\	.	.	.	8dd\J	.	.	.	.	.	.	.	.	.	.	.	.	.	.
8G\	.	8r	.	[4gg\	.	.	.	.	.	.	.	.	.	.	.	.	.	.
8B-\J	.	8b-\	.	.	.	.	.	.	.	.	.	.	.	.	.	.	.	.
=63	=63	=63	=63	=63	=63	=63	=63	=63	=63	=63	=63	=63	=63	=63	=63	=63	=63	=63
!	!	!	!	!LO:SIC:s=16ggLL]	!	!	!	!	!	!	!	!	!	!	!	!	!	!
!LO:TX:t=P:problem=mixed beam	!	!	!	!LO:N:xstem:cue	!	!	!	!	!	!	!	!	!	!	!	!	!	!
8c\L	.	8cc\L	.	16gg\]	2r	.	.	2r	.	.	2r	.	.	2r	.	.	.	.
!	!	!	!	!LO:SIC:s=16bb-	!	!	!	!	!	!	!	!	!	!	!	!	!	!
.	.	.	.	16bb-\LL	.	.	.	.	.	.	.	.	.	.	.	.	.	.
!	!	!LO:SIC:s=8ddJ	!	!	!	!	!	!	!	!	!	!	!	!	!	!	!	!
8G\	.	8dd\	.	16aa\	.	.	.	.	.	.	.	.	.	.	.	.	.	.
.	.	.	.	16gg\JJ	.	.	.	.	.	.	.	.	.	.	.	.	.	.
!	!	!LO:SIC:s=8.aL	!	!	!	!	!	!	!	!	!	!	!	!	!	!	!	!
8d\	.	8.a\	.	8.ff#Xm\L	.	.	.	.	.	.	.	.	.	.	.	.	.	.
8D/J	x 4	.	.	.	.	.	.	.	.	.	.	.	.	.	.	.	.	.
.	# 3	16a\Jk	.	16ff#\Jk	.	.	.	.	.	.	.	.	.	.	.	.	.	.
!LO:TX:b:i:mod= :t=Tutti adte Omnis Caro	!	!	!	!	!	!	!	!	!	!	!	!	!	!	!	!	!	!
4GG/	.	4b-\	.	4gg\	4r	.	.	4r	.	.	4r	.	.	4r	.	.	.	.
!	!	!	!	!	!	!	!	!LO:SIC:s=(16e-LL	!	!	!	!	!	!	!	!	!	!
8C/L	.	4r	.	4r	(16C/LL	Ad	ad	16e-\LL	Ad	ad	8g\	ad	ad	8ee-\	ad	ad	.	.
!	!	!	!	!	!	!	!	!LO:SIC:s=16dJJ)	!	!	!	!	!	!	!	!	!	!
.	.	.	.	.	16D/JJ)	.	.	16d\JJ	.	.	.	.	.	.	.	.	.	.
8C/J	.	.	.	.	(16E-\LL	te	te	(16c\LL	te	te	8g\	te	te	8ee-\	te	te	.	.
.	.	.	.	.	16F\JJ)	.	.	16d\JJ)	.	.	.	.	.	.	.	.	.	.
=64	=64	=64	=64	=64	=64	=64	=64	=64	=64	=64	=64	=64	=64	=64	=64	=64	=64	=64
!	!	!	!	!LO:TX:a:mod= :t=2	!	!	!	!	!	!	!	!	!	!	!	!	!	!
8G\L	.	0r	.	0r	4G\	Om-	om-	4Bn\	Om-	om-	4g\	O-	om-	4dd\	Om-	om-	.	.
8A\	.	.	.	.	.	.	.	.	.	.	.	.	.	.	.	.	.	.
8Bn\	6	.	.	.	4G\	-nis	-nis	4B\	-nis	-nis	4g\	-mis	-nis	4dd\	-nis	-nis	.	.
8G\J	.	.	.	.	.	.	.	.	.	.	.	.	.	.	.	.	.	.
8c\L	.	.	.	.	8c\	Ca-	ca-	8c\	Ca-	ca-	8g\	Ca-	ca-	8ee-\	Ca-	ca-	.	.
8B-X\	.	.	.	.	8B-\	-ro	-ro	8B-X\	-ro	-ro	8f\	-ro	-ro	8dd\	-ro	-ro	.	.
!	!	!	!	!	!	!	!	!LO:LB:g=original	!	!	!	!	!	!	!	!	!	!
8A-X\	.	.	.	.	8.A-X\	ve-	ve-	8.A-X\	Ve-	ve-	8.e-\	ve-	ve-	8.cc\	ve-	ve-	.	.
8F\J	7	.	.	.	.	.	.	.	.	.	.	.	.	.	.	.	.	.
.	6	.	.	.	16A-\	-ni-	-ni-	16A-\	-ni-	-ni-	16e-\	-ni-	-ni-	16cc\	-ni-	-ni-	.	.
=65	=65	=65	=65	=65	=65	=65	=65	=65	=65	=65	=65	=65	=65	=65	=65	=65	=65	=65
4G\	.	.	.	.	4G\	-et	-et	4Bn\	-et	-et	4d\	-et	-et	4bn\	-et	-et	0r	0r
8c\L	.	.	.	.	8c\	Om-	om-	8c\	Om-	om-	8g\	Om-	om-	8ee-\	Om-	om-	.	.
8B-\J	.	.	.	.	8B-\	-nis	-nis	8d\	-nis	-nis	8f\	-nis	-nis	8dd\	-nis	-nis	.	.
!LO:TX:t=P:problem=mixed beam	!	!	!	!	!	!	!	!	!	!	!	!	!	!	!	!	!	!
8A-X\L	.	.	.	.	8A-X\	Ca-	ca-	8e-\	Ca-	ca-	8a-X\	Ca-	ca-	8ee-\	Ca-	ca-	.	.
8F\	.	.	.	.	8F\	-ro	-ro	8c\	-ro	-ro	8a-\	-ro	-ro	8cc\	-ro	-ro	.	.
8G\	.	.	.	.	8.G\	Ve-	ve-	8.d\	Ve-	ve-	8.g\	ve-	ve-	8.bn\	ve-	ve-	.	.
8GG/J	4	.	.	.	.	.	.	.	.	.	.	.	.	.	.	.	.	.
.	3	.	.	.	16G\	-ni-	-ni-	16d\	-ni-	-ni-	16g\	-ni-	-ni-	16b\	-ni-	-ni-	.	.
=66	=66	=66	=66	=66	=66	=66	=66	=66	=66	=66	=66	=66	=66	=66	=66	=66	=66	=66
8C/L	.	4r	.	4r	4C/	-et	-et	4c\	-et	-et	4g\	-et	-et	4cc\	-et	-et	.	.
8D/	.	.	.	.	.	.	.	.	.	.	.	.	.	.	.	.	.	.
8E-/	.	8r	.	8r	4r	.	.	4r	.	.	4r	.	.	4r	.	.	.	.
8BBn/J	6	8d/	.	8g/	.	.	.	.	.	.	.	.	.	.	.	.	.	.
8C/L	-6r	8e-/L	.	8a-X/L	2r	.	.	2r	.	.	2r	.	.	2r	.	.	.	.
8C/	n6r	8e-/	.	8an/	.	.	.	.	.	.	.	.	.	.	.	.	.	.
8D/	-6r	8f/	.	8b-X/	.	.	.	.	.	.	.	.	.	.	.	.	.	.
8D/J	n6r	8f/J	.	8bn/J	.	.	.	.	.	.	.	.	.	.	.	.	.	.
!	!	!	!	!	!	!	!	!	!	!	!	!	!	!	!	!	!LO:LB:g=original	!
=67	=67	=67	=67	=67	=67	=67	=67	=67	=67	=67	=67	=67	=67	=67	=67	=67	=67	=67
8E-\L	6	4g/	.	8cc\L	1r	.	.	1r	.	.	1r	.	.	1r	.	.	4r	4r
8D\	.	.	.	8g\J	.	.	.	.	.	.	.	.	.	.	.	.	.	.
!	!	!	!	!LO:SIC:s=4.cc	!	!	!	!	!	!	!	!	!	!	!	!	!	!
8C\	.	8r	.	(4.cc\	.	.	.	.	.	.	.	.	.	.	.	.	8r	8r
8E-\J	.	8g/	.	.	.	.	.	.	.	.	.	.	.	.	.	.	8ee-\	8gg\
!LO:MO:null:mod=*null	!	!	!	!	!	!	!	!	!	!	!	!	!	!	!	!	!	!
*custos:F	*	*	*	*	*	*	*	*	*	*	*	*	*	*	*	*	*	*
!LO:LB:g=original	!	!	!	!	!	!	!	!	!	!	!	!	!	!	!	!	!	!
!LO:TX:t=P:problem=mixed beam	!	!	!	!	!	!	!	!	!	!	!	!	!	!	!	!	!	!
8F\L	7	8g/L	.	.	.	.	.	.	.	.	.	.	.	.	.	.	8cc\L	16ff\LL
.	.	.	.	.	.	.	.	.	.	.	.	.	.	.	.	.	.	16ee-\
*	*	*	*	*Xtuplet	*	*	*	*	*	*	*	*	*	*	*	*	*	*
!	!	!	!	!LO:SIC:s=24ee-LL	!	!	!	!	!	!	!	!	!	!	!	!	!	!
8C\	.	8a-X/	.	24ee-\LL)	.	.	.	.	.	.	.	.	.	.	.	.	8g\J	16dd\
.	.	.	.	24dd\	.	.	.	.	.	.	.	.	.	.	.	.	.	.
.	.	.	.	.	.	.	.	.	.	.	.	.	.	.	.	.	.	16cc\JJ
.	.	.	.	24cc\JJ	.	.	.	.	.	.	.	.	.	.	.	.	.	.
8G\	.	8d/	.	8.bnm\L	.	.	.	.	.	.	.	.	.	.	.	.	4g/	8.dd\L
8GG/J	4	8d/J	.	.	.	.	.	.	.	.	.	.	.	.	.	.	.	.
.	3	.	.	16b\Jk	.	.	.	.	.	.	.	.	.	.	.	.	.	16cc\Jk
!	!	!	!	!	!	!	!	!	!	!	!LO:LB:g=original	!	!	!	!	!	!	!
=68	=68	=68	=68	=68	=68	=68	=68	=68	=68	=68	=68	=68	=68	=68	=68	=68	=68	=68
4C/	.	4e-/	.	4cc\	4r	.	.	4r	.	.	4r	.	.	4r	.	.	4e-/	4cc\
!	!	!	!	!	!LO:LB:g=original	!	!	!	!	!	!	!	!	!	!	!	!	!
8c\L	.	4r	.	4r	8c\	Om-	om-	8c\	Om-	om-	8g\	Om-	om-	8ee-\	Om-	om-	4r	4r
8B-\J	.	.	.	.	8B-\	-nis	-nis	8d\	-nis	-nis	8f\	-nis	-nis	8dd\	-nis	-nis	.	.
!LO:TX:t=P:problem=mixed beam	!	!	!	!	!	!	!	!	!	!	!	!	!	!LO:LB:g=original	!	!	!	!
8A-X\L	.	2r	.	2r	8A-X\	Ca-	ca-	8e-\	Ca-	ca-	8a-X\	Ca-	ca-	8ee-\	ca-	ca-	2r	2r
8F\	.	.	.	.	8F\	-ro	-ro	8c\	-ro	-ro	8a-\	-ro	-ro	8cc\	-ro	-ro	.	.
8G\	.	.	.	.	8.G\	Ve-	ve-	8.d\	Ve-	ve-	8.g\	ve-	ve-	8.bn\	ve-	ve-	.	.
8GG/J	4	.	.	.	.	.	.	.	.	.	.	.	.	.	.	.	.	.
.	3	.	.	.	16G\	-ni-	-ni-	16d\	-ni-	-ni-	16g\	-ni-	-ni-	16b\	-ni-	-ni-	.	.
=69	=69	=69	=69	=69	=69	=69	=69	=69	=69	=69	=69	=69	=69	=69	=69	=69	=69	=69
8C/L	.	4r	.	4r	4C/	-et	-et.	4c\	-et	-et.	4g\	-et	-et.	4cc\	-et	-et.	1r	1r
8D/	.	.	.	.	.	.	.	.	.	.	.	.	.	.	.	.	.	.
8E-/	.	8r	.	8r	4r	.	.	4r	.	.	4r	.	.	4r	.	.	.	.
8BBn/J	6	8d/	.	8g/	.	.	.	.	.	.	.	.	.	.	.	.	.	.
8C/L	-6r	8e-/L	.	8a-X/L	2r	.	.	2r	.	.	2r	.	.	2r	.	.	.	.
!	!	!	!LO:DY:b:t=pano	!	!	!	!	!	!	!	!	!	!	!	!	!	!	!
!	!	!	!LO:MO:mod=.	!LO:SIC:s=8a	!	!	!	!	!	!	!	!	!	!	!	!	!	!
8C/	n6r	8e-/	p	8an/J	.	.	.	.	.	.	.	.	.	.	.	.	.	.
!	!	!	!	!LO:SIC:s=8b-	!	!	!	!	!	!	!	!	!	!	!	!	!	!
8D/	-6r	8f/	.	8b-X/L	.	.	.	.	.	.	.	.	.	.	.	.	.	.
8D/J	n6r	8f/J	.	8bn/J	.	.	.	.	.	.	.	.	.	.	.	.	.	.
=70	=70	=70	=70	=70	=70	=70	=70	=70	=70	=70	=70	=70	=70	=70	=70	=70	=70	=70
8E-\L	6	4g/	.	8cc\L	1r	.	.	1r	.	.	1r	.	.	1r	.	.	4r	4r
8D\	.	.	.	8g\J	.	.	.	.	.	.	.	.	.	.	.	.	.	.
!	!	!	!	!LO:SIC:s=4.cc	!	!	!	!	!	!	!	!	!	!	!	!	!	!
8C\	.	8r	.	(4.cc\	.	.	.	.	.	.	.	.	.	.	.	.	8r	8r
8E-\J	.	8g/	.	.	.	.	.	.	.	.	.	.	.	.	.	.	8ee-\	8gg\
!LO:TX:t=P:problem=mixed beam	!	!LO:LB:g=original	!	!	!	!	!	!	!	!	!	!	!	!	!	!	!	!
8F\L	7	8g/L	.	.	.	.	.	.	.	.	.	.	.	.	.	.	8cc\L	16ff\LL
.	.	.	.	.	.	.	.	.	.	.	.	.	.	.	.	.	.	16ee-\
*	*	*	*	*Xtuplet	*	*	*	*	*	*	*	*	*	*	*	*	*	*
!	!	!	!	!LO:SIC:s=24ee-LL	!	!	!	!	!	!	!	!	!	!	!	!	!	!
8C\	.	8a-X/	.	24ee-\LL)	.	.	.	.	.	.	.	.	.	.	.	.	8g\J	16dd\
.	.	.	.	24dd\	.	.	.	.	.	.	.	.	.	.	.	.	.	.
.	.	.	.	.	.	.	.	.	.	.	.	.	.	.	.	.	.	16cc\JJ
.	.	.	.	24cc\JJ	.	.	.	.	.	.	.	.	.	.	.	.	.	.
8G\	.	8d/	.	8.bnm\L	.	.	.	.	.	.	.	.	.	.	.	.	4g/	8.dd\L
8GG/J	4	8d/J	.	.	.	.	.	.	.	.	.	.	.	.	.	.	.	.
.	3	.	.	16b\Jk	.	.	.	.	.	.	.	.	.	.	.	.	.	16cc\Jk
==	==	==	==	==	==	==	==	==	==	==	==	==	==	==	==	==	==	==
*-	*-	*-	*-	*-	*-	*-	*-	*-	*-	*-	*-	*-	*-	*-	*-	*-	*-	*-
!!!system-decoration: [(ww)][vox][(str)]<klav>
!!LO:MO:mod
!! !!!RDF**kern: @ = marked note, color=grey
!!LO:MO:end
!!!filter-modern: shed -k -e "s/([#-])[X]/$1/g; s/[n]/$1/g;" | shed -e "s/TX(.*):t=P:/tx$1:t=P:/LG; s/LO:N:/LO:n:$1/L; s/^(X?)tuplet$/$1TUPLET/I" | sic -sq | modori -m | autostem -r | tie -s | humtr -p
!!!ENC: Andrzej Borzym
!!!END: 2020-04-28
!!!EED: Zofia Niedbalska
!!!EEV: 2020-12-01
!!!ENC-modern: Andrzej Kubiczek
!!!END-modern: 2023-08-25
